; generated by Slic3r 1.2.9 on 2016-12-17 at 00:33:58

; external perimeters extrusion width = 0.40mm
; perimeters extrusion width = 0.48mm
; infill extrusion width = 0.48mm
; solid infill extrusion width = 0.48mm
; top infill extrusion width = 0.48mm

M107
G28 ; home all axes
G29
G1 Z5 F5000 ; lift Z
G21 ; set units to millimeters
G90 ; use absolute coordinates
M82 ; use absolute distances for extrusion
G92 E0
G1 E-1.20000 F1800.00000
G92 E0
G1 Z0.100 F8400.000
G1 Z0.300 F8400.000
G1 Z0.400 F8400.000
G1 X20.679 Y76.281 F8400.000
G1 Z0.300 F8400.000
G1 E1.30000 F1800.00000
G1 X23.138 Y75.851 E1.43821 F900.000
G1 X176.862 Y75.851 E9.94886
G1 X179.230 Y76.249 E10.08179
G1 X181.339 Y77.397 E10.21473 F900.000
G1 X182.957 Y79.170 E10.34766
G1 X183.908 Y81.375 E10.48059
G1 X184.118 Y83.108 E10.57724
G1 X184.118 Y101.108 E11.57378
G1 X183.721 Y103.476 E11.70671
G1 X182.573 Y105.585 E11.83964
G1 X180.799 Y107.203 E11.97258
G1 X177.620 Y108.325 E12.15921
G1 X27.439 Y124.110 E20.51955
G1 X25.043 Y123.959 E20.65248
G1 X22.827 Y123.035 E20.78541
G1 X21.033 Y121.438 E20.91835
G1 X19.859 Y119.344 E21.05128
G1 X19.472 Y117.651 E21.14745
G1 X15.921 Y83.866 E23.02820
G1 X16.069 Y81.469 E23.16113
G1 X16.991 Y79.252 E23.29406
G1 X18.586 Y77.457 E23.42700
G1 X20.627 Y76.310 E23.55661
G1 X20.889 Y76.687 F8400.000
G1 X21.081 Y76.587 E23.56863 F900.000
G1 X23.138 Y76.270 E23.68384
G1 X176.862 Y76.270 E32.19449
G1 X179.158 Y76.667 E32.32350
G1 X181.188 Y77.813 E32.45251 F900.000
G1 X182.715 Y79.573 E32.58152
G1 X183.562 Y81.743 E32.71054
G1 X183.700 Y83.108 E32.78647
G1 X183.700 Y101.108 E33.78301
G1 X183.302 Y103.404 E33.91202
G1 X182.157 Y105.434 E34.04103
G1 X180.397 Y106.961 E34.17005
G1 X177.577 Y107.908 E34.33478
G1 X27.396 Y123.693 E42.69509
G1 X25.071 Y123.535 E42.82410
G1 X22.934 Y122.606 E42.95311
G1 X21.233 Y121.013 E43.08213
G1 X20.166 Y118.942 E43.21114
G1 X19.889 Y117.607 E43.28662
G1 X16.338 Y83.822 E45.16737
G1 X16.493 Y81.497 E45.29638
G1 X17.420 Y79.359 E45.42539
G1 X19.011 Y77.656 E45.55440
G1 X20.835 Y76.714 E45.66807
G1 X21.080 Y77.095 F8400.000
G1 X21.479 Y76.907 E45.69250 F900.000
G1 X23.138 Y76.689 E45.78514
G1 X176.862 Y76.689 E54.29579
G1 X179.084 Y77.086 E54.42076
G1 X181.031 Y78.228 E54.54572 F900.000
G1 X182.463 Y79.973 E54.67069
G1 X183.281 Y83.108 E54.85008
G1 X183.281 Y101.108 E55.84662
G1 X182.884 Y103.330 E55.97159
G1 X181.742 Y105.277 E56.09656
G1 X179.997 Y106.709 E56.22153
G1 X177.533 Y107.492 E56.36468
G1 X27.352 Y123.276 E64.72495
G1 X25.101 Y123.111 E64.84992
G1 X23.046 Y122.177 E64.97489
G1 X21.442 Y120.589 E65.09986
G1 X20.305 Y117.563 E65.27884
G1 X16.754 Y83.778 E67.15958
G1 X16.917 Y81.527 E67.28455
G1 X17.849 Y79.471 E67.40951
G1 X19.435 Y77.865 E67.53448
G1 X21.025 Y77.120 E67.63170
G1 E66.43170 F1800.00000
G92 E0
G1 Z0.400 F8400.000
G1 X33.389 Y113.678 F8400.000
G1 Z0.300 F8400.000
G1 E1.30000 F1800.00000
G1 X33.545 Y115.170 E1.38305 F900.000
G1 X27.576 Y115.797 E1.71538
G1 X24.245 Y84.104 E3.47967
G1 X175.866 Y84.104 E11.87392
G1 X175.866 Y100.211 E12.76565
G1 X169.787 Y100.850 E13.10403
G1 X169.630 Y99.358 E13.18707
G1 X167.646 Y99.567 E13.29752
G1 X166.758 Y91.112 E13.76819
G1 X43.654 Y91.112 E20.58363
G1 X33.149 Y92.216 E21.16842
G1 X35.383 Y113.468 E22.35149
G1 X33.448 Y113.672 E22.45917
G1 X33.849 Y114.051 F8400.000
G1 X34.006 Y115.542 E22.54222 F900.000
G1 X27.203 Y116.257 E22.92093
G1 X23.779 Y83.685 E24.73417
G1 X176.285 Y83.685 E33.17737
G1 X176.285 Y100.588 E34.11317
G1 X169.414 Y101.310 E34.49562
G1 X169.258 Y99.819 E34.57866
G1 X167.274 Y100.027 E34.68912
G1 X166.381 Y91.531 E35.16209
G1 X43.676 Y91.531 E41.95544
G1 X33.609 Y92.589 E42.51582
G1 X35.843 Y113.841 E43.69889
G1 X33.909 Y114.044 E43.80657
G1 X34.264 Y114.386 F8400.000
G1 X34.420 Y115.878 E43.87311 F540.000
G1 X26.867 Y116.672 E44.21002
G1 X23.360 Y83.308 E45.69816
G1 X176.662 Y83.308 E52.49844
G1 X176.662 Y100.928 E53.28004
G1 X169.079 Y101.725 E53.61827
G1 X168.922 Y100.233 E53.68481
G1 X166.938 Y100.442 E53.77331
G1 X166.041 Y91.908 E54.15394
G1 X43.696 Y91.908 E59.58105
G1 X34.024 Y92.925 E60.01243
G1 X36.258 Y114.177 E60.96035
G1 X34.323 Y114.380 E61.04662
G1 X33.866 Y114.428 F8400.000
G1 E59.84662 F1800.00000
G92 E0
G1 Z0.400 F8400.000
G1 X27.999 Y115.513 F8400.000
G1 Z0.300 F8400.000
G1 E1.30000 F1800.00000
G1 X27.781 Y115.294 E1.31712 F810.000
G1 X27.711 Y114.632 E1.35408
G1 X28.536 Y115.456 E1.41875
G1 X29.073 Y115.400 E1.44868
G1 X27.642 Y113.969 E1.56091
G1 X27.572 Y113.306 E1.59786
G1 X29.610 Y115.344 E1.75764
G1 X30.147 Y115.287 E1.78757
G1 X27.502 Y112.643 E1.99490
G1 X27.433 Y111.980 E2.03186
G1 X30.683 Y115.231 E2.28675
G1 X31.220 Y115.174 E2.31667
G1 X27.363 Y111.317 E2.61911
G1 X27.293 Y110.654 E2.65607
G1 X31.757 Y115.118 E3.00606
G1 X32.294 Y115.061 E3.03599
G1 X27.224 Y109.991 E3.43353
G1 X27.154 Y109.328 E3.47049
G1 X32.831 Y115.005 E3.91559
G1 X33.252 Y114.833 E3.94080
G1 X27.084 Y108.665 E4.42436
G1 X27.015 Y108.003 E4.46132
G1 X33.182 Y114.170 E4.94488
G1 X33.112 Y113.507 E4.98184
G1 X26.945 Y107.340 E5.46540
G1 X26.875 Y106.677 E5.50235
G1 X33.613 Y113.415 E6.03065
G1 X34.150 Y113.358 E6.06058
G1 X26.806 Y106.014 E6.63643
G1 X26.736 Y105.351 E6.67339
G1 X34.687 Y113.302 E7.29679
G1 X35.086 Y113.108 E7.32141
G1 X26.666 Y104.688 E7.98160
G1 X26.597 Y104.025 E8.01856
G1 X35.017 Y112.445 E8.67876
G1 X34.947 Y111.782 E8.71571
G1 X26.527 Y103.362 E9.37591
G1 X26.457 Y102.699 E9.41287
G1 X34.877 Y111.119 E10.07306
G1 X34.808 Y110.456 E10.11002
G1 X26.388 Y102.036 E10.77022
G1 X26.318 Y101.373 E10.80717
G1 X34.738 Y109.794 E11.46737
G1 X34.668 Y109.131 E11.50433
G1 X26.248 Y100.711 E12.16452
G1 X26.179 Y100.048 E12.20148
G1 X34.599 Y108.468 E12.86168
G1 X34.529 Y107.805 E12.89863
G1 X26.109 Y99.385 E13.55883
G1 X26.039 Y98.722 E13.59578
G1 X34.459 Y107.142 E14.25598
G1 X34.390 Y106.479 E14.29294
G1 X25.970 Y98.059 E14.95313
G1 X25.900 Y97.396 E14.99009
G1 X34.320 Y105.816 E15.65029
G1 X34.250 Y105.153 E15.68724
G1 X25.830 Y96.733 E16.34744
G1 X25.761 Y96.070 E16.38440
G1 X34.181 Y104.490 E17.04459
G1 X34.111 Y103.827 E17.08155
G1 X25.691 Y95.407 E17.74174
G1 X25.621 Y94.744 E17.77870
G1 X34.041 Y103.164 E18.43890
G1 X33.972 Y102.502 E18.47585
G1 X25.552 Y94.082 E19.13605
G1 X25.482 Y93.419 E19.17301
G1 X33.902 Y101.839 E19.83320
G1 X33.832 Y101.176 E19.87016
G1 X25.412 Y92.756 E20.53036
G1 X25.342 Y92.093 E20.56731
G1 X33.763 Y100.513 E21.22751
G1 X33.693 Y99.850 E21.26446
G1 X25.273 Y91.430 E21.92466
G1 X25.203 Y90.767 E21.96162
G1 X33.623 Y99.187 E22.62181
G1 X33.554 Y98.524 E22.65877
G1 X25.133 Y90.104 E23.31897
G1 X25.064 Y89.441 E23.35592
G1 X33.484 Y97.861 E24.01612
G1 X33.414 Y97.198 E24.05307
G1 X24.994 Y88.778 E24.71327
G1 X24.924 Y88.115 E24.75023
G1 X33.345 Y96.535 E25.41042
G1 X33.275 Y95.873 E25.44738
G1 X24.855 Y87.452 E26.10758
G1 X24.785 Y86.790 E26.14453
G1 X33.205 Y95.210 E26.80473
G1 X33.135 Y94.547 E26.84168
G1 X24.715 Y86.127 E27.50188
G1 X24.646 Y85.464 E27.53884
G1 X33.066 Y93.884 E28.19903
G1 X32.996 Y93.221 E28.23599
G1 X24.576 Y84.801 E28.89619
G1 X24.720 Y84.351 E28.92235
G1 X32.926 Y92.558 E29.56581
G1 X32.958 Y91.996 E29.59699
G1 X25.313 Y84.351 E30.19642
G1 X25.906 Y84.351 E30.22931
G1 X33.495 Y91.940 E30.82432
G1 X34.032 Y91.884 E30.85424
G1 X26.500 Y84.351 E31.44482
G1 X27.093 Y84.351 E31.47771
G1 X34.569 Y91.827 E32.06387
G1 X35.105 Y91.771 E32.09380
G1 X27.686 Y84.351 E32.67553
G1 X28.279 Y84.351 E32.70842
G1 X35.642 Y91.714 E33.28573
G1 X36.179 Y91.658 E33.31566
G1 X28.872 Y84.351 E33.88854
G1 X29.466 Y84.351 E33.92143
G1 X36.716 Y91.601 E34.48990
G1 X37.253 Y91.545 E34.51982
G1 X30.059 Y84.351 E35.08386
G1 X30.652 Y84.351 E35.11675
G1 X37.789 Y91.489 E35.67637
G1 X38.326 Y91.432 E35.70629
G1 X31.245 Y84.351 E36.26148
G1 X31.839 Y84.351 E36.29437
G1 X38.863 Y91.376 E36.84514
G1 X39.400 Y91.319 E36.87507
G1 X32.432 Y84.351 E37.42141
G1 X33.025 Y84.351 E37.45430
G1 X39.937 Y91.263 E37.99622
G1 X40.474 Y91.207 E38.02614
G1 X33.618 Y84.351 E38.56364
G1 X34.212 Y84.351 E38.59653
G1 X41.010 Y91.150 E39.12960
G1 X41.547 Y91.094 E39.15953
G1 X34.805 Y84.351 E39.68818
G1 X35.398 Y84.351 E39.72107
G1 X42.084 Y91.037 E40.24529
G1 X42.621 Y90.981 E40.27522
G1 X35.991 Y84.351 E40.79502
G1 X36.585 Y84.351 E40.82791
G1 X43.158 Y90.924 E41.34328
G1 X43.694 Y90.868 E41.37321
G1 X37.178 Y84.351 E41.88416
G1 X37.771 Y84.351 E41.91705
G1 X44.284 Y90.865 E42.42775
G1 X44.878 Y90.865 E42.46064
G1 X38.364 Y84.351 E42.97134
G1 X38.957 Y84.351 E43.00423
G1 X45.471 Y90.865 E43.51493
G1 X46.064 Y90.865 E43.54783
G1 X39.551 Y84.351 E44.05853
G1 X40.144 Y84.351 E44.09142
G1 X46.657 Y90.865 E44.60212
G1 X47.251 Y90.865 E44.63501
G1 X40.737 Y84.351 E45.14571
G1 X41.330 Y84.351 E45.17860
G1 X47.844 Y90.865 E45.68930
G1 X48.437 Y90.865 E45.72219
G1 X41.924 Y84.351 E46.23289
G1 X42.517 Y84.351 E46.26578
G1 X49.030 Y90.865 E46.77648
G1 X49.623 Y90.865 E46.80937
G1 X43.110 Y84.351 E47.32007
G1 X43.703 Y84.351 E47.35296
G1 X50.217 Y90.865 E47.86366
G1 X50.810 Y90.865 E47.89655
G1 X44.297 Y84.351 E48.40725
G1 X44.890 Y84.351 E48.44014
G1 X51.403 Y90.865 E48.95084
G1 X51.996 Y90.865 E48.98373
G1 X45.483 Y84.351 E49.49443
G1 X46.076 Y84.351 E49.52732
G1 X52.590 Y90.865 E50.03802
G1 X53.183 Y90.865 E50.07091
G1 X46.669 Y84.351 E50.58161
G1 X47.263 Y84.351 E50.61450
G1 X53.776 Y90.865 E51.12520
G1 X54.369 Y90.865 E51.15809
G1 X47.856 Y84.351 E51.66879
G1 X48.449 Y84.351 E51.70168
G1 X54.963 Y90.865 E52.21238
G1 X55.556 Y90.865 E52.24527
G1 X49.042 Y84.351 E52.75597
G1 X49.636 Y84.351 E52.78886
G1 X56.149 Y90.865 E53.29956
G1 X56.742 Y90.865 E53.33245
G1 X50.229 Y84.351 E53.84316
G1 X50.822 Y84.351 E53.87605
G1 X57.335 Y90.865 E54.38675
G1 X57.929 Y90.865 E54.41964
G1 X51.415 Y84.351 E54.93034
G1 X52.009 Y84.351 E54.96323
G1 X58.522 Y90.865 E55.47393
G1 X59.115 Y90.865 E55.50682
G1 X52.602 Y84.351 E56.01752
G1 X53.195 Y84.351 E56.05041
G1 X59.708 Y90.865 E56.56111
G1 X60.302 Y90.865 E56.59400
G1 X53.788 Y84.351 E57.10470
G1 X54.381 Y84.351 E57.13759
G1 X60.895 Y90.865 E57.64829
G1 X61.488 Y90.865 E57.68118
G1 X54.975 Y84.351 E58.19188
G1 X55.568 Y84.351 E58.22477
G1 X62.081 Y90.865 E58.73547
G1 X62.675 Y90.865 E58.76836
G1 X56.161 Y84.351 E59.27906
G1 X56.754 Y84.351 E59.31195
G1 X63.268 Y90.865 E59.82265
G1 X63.861 Y90.865 E59.85554
G1 X57.348 Y84.351 E60.36624
G1 X57.941 Y84.351 E60.39913
G1 X64.454 Y90.865 E60.90983
G1 X65.047 Y90.865 E60.94272
G1 X58.534 Y84.351 E61.45342
G1 X59.127 Y84.351 E61.48631
G1 X65.641 Y90.865 E61.99701
G1 X66.234 Y90.865 E62.02990
G1 X59.721 Y84.351 E62.54060
G1 X60.314 Y84.351 E62.57349
G1 X66.827 Y90.865 E63.08419
G1 X67.420 Y90.865 E63.11708
G1 X60.907 Y84.351 E63.62778
G1 X61.500 Y84.351 E63.66068
G1 X68.014 Y90.865 E64.17138
G1 X68.607 Y90.865 E64.20427
G1 X62.093 Y84.351 E64.71497
G1 X62.687 Y84.351 E64.74786
G1 X69.200 Y90.865 E65.25856
G1 X69.793 Y90.865 E65.29145
G1 X63.280 Y84.351 E65.80215
G1 X63.873 Y84.351 E65.83504
G1 X70.387 Y90.865 E66.34574
G1 X70.980 Y90.865 E66.37863
G1 X64.466 Y84.351 E66.88933
G1 X65.060 Y84.351 E66.92222
G1 X71.573 Y90.865 E67.43292
G1 X72.166 Y90.865 E67.46581
G1 X65.653 Y84.351 E67.97651
G1 X66.246 Y84.351 E68.00940
G1 X72.760 Y90.865 E68.52010
G1 X73.353 Y90.865 E68.55299
G1 X66.839 Y84.351 E69.06369
G1 X67.433 Y84.351 E69.09658
G1 X73.946 Y90.865 E69.60728
G1 X74.539 Y90.865 E69.64017
G1 X68.026 Y84.351 E70.15087
G1 X68.619 Y84.351 E70.18376
G1 X75.132 Y90.865 E70.69446
G1 X75.726 Y90.865 E70.72735
G1 X69.212 Y84.351 E71.23805
G1 X69.805 Y84.351 E71.27094
G1 X76.319 Y90.865 E71.78164
G1 X76.912 Y90.865 E71.81453
G1 X70.399 Y84.351 E72.32523
G1 X70.992 Y84.351 E72.35812
G1 X77.505 Y90.865 E72.86882
G1 X78.099 Y90.865 E72.90172
G1 X71.585 Y84.351 E73.41242
G1 X72.178 Y84.351 E73.44531
G1 X78.692 Y90.865 E73.95601
G1 X79.285 Y90.865 E73.98890
G1 X72.772 Y84.351 E74.49960
G1 X73.365 Y84.351 E74.53249
G1 X79.878 Y90.865 E75.04319
G1 X80.472 Y90.865 E75.07608
G1 X73.958 Y84.351 E75.58678
G1 X74.551 Y84.351 E75.61967
G1 X81.065 Y90.865 E76.13037
G1 X81.658 Y90.865 E76.16326
G1 X75.145 Y84.351 E76.67396
G1 X75.738 Y84.351 E76.70685
G1 X82.251 Y90.865 E77.21755
G1 X82.844 Y90.865 E77.25044
G1 X76.331 Y84.351 E77.76114
G1 X76.924 Y84.351 E77.79403
G1 X83.438 Y90.865 E78.30473
G1 X84.031 Y90.865 E78.33762
G1 X77.518 Y84.351 E78.84832
G1 X78.111 Y84.351 E78.88121
G1 X84.624 Y90.865 E79.39191
G1 X85.217 Y90.865 E79.42480
G1 X78.704 Y84.351 E79.93550
G1 X79.297 Y84.351 E79.96839
G1 X85.811 Y90.865 E80.47909
G1 X86.404 Y90.865 E80.51198
G1 X79.890 Y84.351 E81.02268
G1 X80.484 Y84.351 E81.05557
G1 X86.997 Y90.865 E81.56627
G1 X87.590 Y90.865 E81.59916
G1 X81.077 Y84.351 E82.10987
G1 X81.670 Y84.351 E82.14276
G1 X88.184 Y90.865 E82.65346
G1 X88.777 Y90.865 E82.68635
G1 X82.263 Y84.351 E83.19705
G1 X82.857 Y84.351 E83.22994
G1 X89.370 Y90.865 E83.74064
G1 X89.963 Y90.865 E83.77353
G1 X83.450 Y84.351 E84.28423
G1 X84.043 Y84.351 E84.31712
G1 X90.556 Y90.865 E84.82782
G1 X91.150 Y90.865 E84.86071
G1 X84.636 Y84.351 E85.37141
G1 X85.230 Y84.351 E85.40430
G1 X91.743 Y90.865 E85.91500
G1 X92.336 Y90.865 E85.94789
G1 X85.823 Y84.351 E86.45859
G1 X86.416 Y84.351 E86.49148
G1 X92.929 Y90.865 E87.00218
G1 X93.523 Y90.865 E87.03507
G1 X87.009 Y84.351 E87.54577
G1 X87.602 Y84.351 E87.57866
G1 X94.116 Y90.865 E88.08936
G1 X94.709 Y90.865 E88.12225
G1 X88.196 Y84.351 E88.63295
G1 X88.789 Y84.351 E88.66584
G1 X95.302 Y90.865 E89.17654
G1 X95.896 Y90.865 E89.20943
G1 X89.382 Y84.351 E89.72013
G1 X89.975 Y84.351 E89.75302
G1 X96.489 Y90.865 E90.26372
G1 X97.082 Y90.865 E90.29661
G1 X90.569 Y84.351 E90.80731
G1 X91.162 Y84.351 E90.84020
G1 X97.675 Y90.865 E91.35091
G1 X98.268 Y90.865 E91.38380
G1 X91.755 Y84.351 E91.89450
G1 X92.348 Y84.351 E91.92739
G1 X98.862 Y90.865 E92.43809
G1 X99.455 Y90.865 E92.47098
G1 X92.942 Y84.351 E92.98168
G1 X93.535 Y84.351 E93.01457
G1 X100.048 Y90.865 E93.52527
G1 X100.641 Y90.865 E93.55816
G1 X94.128 Y84.351 E94.06886
G1 X94.721 Y84.351 E94.10175
G1 X101.235 Y90.865 E94.61245
G1 X101.828 Y90.865 E94.64534
G1 X95.314 Y84.351 E95.15604
G1 X95.908 Y84.351 E95.18893
G1 X102.421 Y90.865 E95.69963
G1 X103.014 Y90.865 E95.73252
G1 X96.501 Y84.351 E96.24322
G1 X97.094 Y84.351 E96.27611
G1 X103.608 Y90.865 E96.78681
G1 X104.201 Y90.865 E96.81970
G1 X97.687 Y84.351 E97.33040
G1 X98.281 Y84.351 E97.36329
G1 X104.794 Y90.865 E97.87399
G1 X105.387 Y90.865 E97.90688
G1 X98.874 Y84.351 E98.41758
G1 X99.467 Y84.351 E98.45047
G1 X105.980 Y90.865 E98.96117
G1 X106.574 Y90.865 E98.99406
G1 X100.060 Y84.351 E99.50476
G1 X100.654 Y84.351 E99.53765
G1 X107.167 Y90.865 E100.04835
G1 X107.760 Y90.865 E100.08124
G1 X101.247 Y84.351 E100.59195
G1 X101.840 Y84.351 E100.62484
G1 X108.353 Y90.865 E101.13554
G1 X108.947 Y90.865 E101.16843
G1 X102.433 Y84.351 E101.67913
G1 X103.026 Y84.351 E101.71202
G1 X109.540 Y90.865 E102.22272
G1 X110.133 Y90.865 E102.25561
G1 X103.620 Y84.351 E102.76631
G1 X104.213 Y84.351 E102.79920
G1 X110.726 Y90.865 E103.30990
G1 X111.320 Y90.865 E103.34279
G1 X104.806 Y84.351 E103.85349
G1 X105.399 Y84.351 E103.88638
G1 X111.913 Y90.865 E104.39708
G1 X112.506 Y90.865 E104.42997
G1 X105.993 Y84.351 E104.94067
G1 X106.586 Y84.351 E104.97356
G1 X113.099 Y90.865 E105.48426
G1 X113.693 Y90.865 E105.51715
G1 X107.179 Y84.351 E106.02785
G1 X107.772 Y84.351 E106.06074
G1 X114.286 Y90.865 E106.57144
G1 X114.879 Y90.865 E106.60433
G1 X108.366 Y84.351 E107.11503
G1 X108.959 Y84.351 E107.14792
G1 X115.472 Y90.865 E107.65862
G1 X116.065 Y90.865 E107.69151
G1 X109.552 Y84.351 E108.20221
G1 X110.145 Y84.351 E108.23510
G1 X116.659 Y90.865 E108.74580
G1 X117.252 Y90.865 E108.77869
G1 X110.739 Y84.351 E109.28939
G1 X111.332 Y84.351 E109.32228
G1 X117.845 Y90.865 E109.83298
G1 X118.438 Y90.865 E109.86587
G1 X111.925 Y84.351 E110.37657
G1 X112.518 Y84.351 E110.40946
G1 X119.032 Y90.865 E110.92016
G1 X119.625 Y90.865 E110.95306
G1 X113.111 Y84.351 E111.46376
G1 X113.705 Y84.351 E111.49665
G1 X120.218 Y90.865 E112.00735
G1 X120.811 Y90.865 E112.04024
G1 X114.298 Y84.351 E112.55094
G1 X114.891 Y84.351 E112.58383
