; generated by Slic3r 1.2.9 on 2016-12-17 at 01:15:26

; external perimeters extrusion width = 0.40mm
; perimeters extrusion width = 0.48mm
; infill extrusion width = 0.48mm
; solid infill extrusion width = 0.48mm
; top infill extrusion width = 0.48mm

M107
G28 ; home all axes
G29
G1 Z5 F5000 ; lift Z
G21 ; set units to millimeters
G90 ; use absolute coordinates
M82 ; use absolute distances for extrusion
G92 E0
G1 E-1.20000 F1800.00000
G92 E0
G1 Z0.100 F8400.000
G1 Z0.300 F8400.000
G1 Z0.400 F8400.000
G1 X20.987 Y43.746 F8400.000
G1 Z0.300 F8400.000
G1 E1.30000 F1800.00000
G1 X22.296 Y43.206 E1.37842 F900.000
G1 X22.676 Y43.091 E1.40038
G1 X24.073 Y42.815 E1.47921
G1 X25.165 Y42.743 E1.53980
G1 X174.862 Y42.743 E9.82751
G1 X175.565 Y42.778 E9.86649
G1 X175.955 Y42.816 E9.88821 F900.000
G1 X177.362 Y43.095 E9.96758
G1 X177.737 Y43.209 E9.98929
G1 X179.050 Y43.753 E10.06801
G1 X179.396 Y43.938 E10.08972
G1 X180.580 Y44.731 E10.16859
G1 X180.883 Y44.980 E10.19031
G1 X181.885 Y45.981 E10.26873
G1 X182.133 Y46.284 E10.29044
G1 X182.925 Y47.470 E10.36938
G1 X183.110 Y47.816 E10.39109
G1 X183.653 Y49.128 E10.46969
G1 X183.767 Y49.503 E10.49139
G1 X184.045 Y50.899 E10.57021
G1 X184.118 Y52.000 E10.63130
G1 X184.118 Y150.000 E16.05691
G1 X183.721 Y152.368 E16.18984
G1 X182.573 Y154.477 E16.32277
G1 X180.799 Y156.095 E16.45571
G1 X178.595 Y157.047 E16.58864
G1 X176.862 Y157.257 E16.68529
G1 X23.154 Y157.257 E25.19507
G1 X20.786 Y156.859 E25.32800
G1 X18.677 Y155.711 E25.46093
G1 X17.059 Y153.938 E25.59386
G1 X16.107 Y151.733 E25.72680
G1 X15.897 Y150.000 E25.82344
G1 X15.897 Y52.000 E31.24905
G1 X15.971 Y50.895 E31.31035
G1 X16.252 Y49.491 E31.38963
G1 X16.367 Y49.116 E31.41134
G1 X16.914 Y47.802 E31.49015
G1 X17.100 Y47.455 E31.51193
G1 X17.896 Y46.270 E31.59100
G1 X18.149 Y45.964 E31.61296
G1 X19.151 Y44.967 E31.69122
G1 X19.458 Y44.716 E31.71317
G1 X20.639 Y43.931 E31.79170
G1 X20.934 Y43.774 E31.81018
G1 X21.184 Y44.115 F8400.000
G1 X22.418 Y43.607 E31.88407 F900.000
G1 X22.797 Y43.492 E31.90603
G1 X24.113 Y43.232 E31.98031
G1 X25.165 Y43.162 E32.03865
G1 X174.862 Y43.162 E40.32637
G1 X175.524 Y43.194 E40.36309
G1 X175.915 Y43.232 E40.38481 F900.000
G1 X177.240 Y43.496 E40.45961
G1 X177.615 Y43.610 E40.48132
G1 X178.853 Y44.123 E40.55549
G1 X179.198 Y44.308 E40.57720
G1 X180.314 Y45.054 E40.65152
G1 X180.617 Y45.303 E40.67323
G1 X181.561 Y46.247 E40.74713
G1 X181.810 Y46.550 E40.76884
G1 X182.556 Y47.667 E40.84322
G1 X182.741 Y48.013 E40.86494
G1 X183.253 Y49.249 E40.93900
G1 X183.366 Y49.624 E40.96069
G1 X183.628 Y50.940 E41.03497
G1 X183.700 Y52.000 E41.09378
G1 X183.700 Y150.000 E46.51939
G1 X183.302 Y152.296 E46.64840
G1 X182.157 Y154.326 E46.77741
G1 X180.397 Y155.853 E46.90642
G1 X178.226 Y156.700 E47.03544
G1 X176.862 Y156.838 E47.11137
G1 X23.154 Y156.838 E55.62115
G1 X20.858 Y156.441 E55.75016
G1 X18.828 Y155.296 E55.87918
G1 X17.301 Y153.535 E56.00819
G1 X16.454 Y151.365 E56.13720
G1 X16.316 Y150.000 E56.21313
G1 X16.316 Y52.000 E61.63874
G1 X16.388 Y50.936 E61.69775
G1 X16.653 Y49.613 E61.77246
G1 X16.767 Y49.238 E61.79417
G1 X17.283 Y48.000 E61.86843
G1 X17.469 Y47.654 E61.89020
G1 X18.219 Y46.536 E61.96471
G1 X18.472 Y46.231 E61.98666
G1 X19.416 Y45.291 E62.06040
G1 X19.723 Y45.041 E62.08234
G1 X20.836 Y44.300 E62.15634
G1 X21.131 Y44.144 E62.17482
G1 X21.380 Y44.485 F8400.000
G1 X22.539 Y44.008 E62.24419 F900.000
G1 X22.918 Y43.893 E62.26613
G1 X24.154 Y43.649 E62.33586
G1 X25.165 Y43.581 E62.39197
G1 X174.862 Y43.581 E70.67969
G1 X175.484 Y43.611 E70.71416
G1 X175.874 Y43.649 E70.73588 F900.000
G1 X177.118 Y43.896 E70.80609
G1 X177.493 Y44.010 E70.82780
G1 X178.655 Y44.492 E70.89743
G1 X179.001 Y44.677 E70.91914
G1 X180.048 Y45.378 E70.98891
G1 X180.351 Y45.627 E71.01062
G1 X181.237 Y46.513 E71.08000
G1 X181.486 Y46.816 E71.10170
G1 X182.187 Y47.865 E71.17152
G1 X182.371 Y48.211 E71.19324
G1 X182.852 Y49.371 E71.26276
G1 X182.966 Y49.746 E71.28446
G1 X183.211 Y50.981 E71.35418
G1 X183.281 Y52.000 E71.41073
G1 X183.281 Y150.000 E76.83633
G1 X182.884 Y152.222 E76.96130
G1 X181.742 Y154.169 E77.08627
G1 X179.997 Y155.601 E77.21124
G1 X176.862 Y156.419 E77.39063
G1 X23.154 Y156.419 E85.90040
G1 X20.932 Y156.022 E86.02537
G1 X18.985 Y154.880 E86.15034
G1 X17.553 Y153.135 E86.27531
G1 X16.735 Y150.000 E86.45470
G1 X16.735 Y52.000 E91.88030
G1 X16.805 Y50.978 E91.93703
G1 X17.053 Y49.736 E92.00716
G1 X17.168 Y49.361 E92.02887
G1 X17.652 Y48.198 E92.09858
G1 X17.838 Y47.852 E92.12035
G1 X18.542 Y46.803 E92.19030
G1 X18.795 Y46.497 E92.21224
G1 X19.681 Y45.616 E92.28146
G1 X19.988 Y45.365 E92.30339
G1 X21.033 Y44.670 E92.37285
G1 X21.327 Y44.513 E92.39133
G1 E91.19133 F1800.00000
G92 E0
G1 Z0.400 F8400.000
G1 X29.653 Y59.539 F8400.000
G1 Z0.300 F8400.000
G1 E1.30000 F1800.00000
G1 X28.931 Y59.757 E1.34174 F360.000
G1 X28.181 Y59.830 E1.38346
G1 X27.432 Y59.757 E1.42517
G1 X26.710 Y59.539 E1.46692
G1 X26.045 Y59.185 E1.50863
G1 X25.462 Y58.709 E1.55028
G1 X24.983 Y58.130 E1.59192
G1 X24.627 Y57.467 E1.63356
G1 X24.408 Y56.748 E1.67519
G1 X24.333 Y56.000 E1.71679
G1 X24.408 Y55.252 E1.75839
G1 X24.627 Y54.533 E1.80002
G1 X24.983 Y53.870 E1.84166
G1 X25.462 Y53.291 E1.88330
G1 X26.045 Y52.815 E1.92495
G1 X26.710 Y52.461 E1.96666
G1 X27.432 Y52.243 E2.00840
G1 X28.181 Y52.170 E2.05012 F360.000
G1 X28.931 Y52.243 E2.09184
G1 X29.653 Y52.461 E2.13358
G1 X30.318 Y52.815 E2.17529
G1 X30.901 Y53.291 E2.21694
G1 X31.380 Y53.870 E2.25858
G1 X31.736 Y54.533 E2.30022
G1 X31.955 Y55.252 E2.34185
G1 X32.029 Y56.000 E2.38345
G1 X31.955 Y56.748 E2.42505
G1 X31.736 Y57.467 E2.46667
G1 X31.380 Y58.130 E2.50832
G1 X30.901 Y58.709 E2.54996
G1 X30.318 Y59.185 E2.59160
G1 X29.706 Y59.511 E2.63000
G1 X29.509 Y59.189 F8400.000
G1 X28.858 Y59.385 E2.66015 F360.000
G1 X28.181 Y59.451 E2.69030
G1 X27.505 Y59.385 E2.72045
G1 X26.854 Y59.189 E2.75060
G1 X26.255 Y58.869 E2.78074
G1 X25.729 Y58.441 E2.81083
G1 X25.298 Y57.918 E2.84088
G1 X24.977 Y57.321 E2.87094
G1 X24.779 Y56.673 E2.90098
G1 X24.713 Y56.000 E2.93100
G1 X24.779 Y55.327 E2.96102
G1 X24.977 Y54.679 E2.99106
G1 X25.298 Y54.082 E3.02112
G1 X25.729 Y53.559 E3.05118
G1 X26.255 Y53.131 E3.08127
G1 X26.854 Y52.811 E3.11141
G1 X27.505 Y52.615 E3.14156
G1 X28.181 Y52.549 E3.17170 F360.000
G1 X28.858 Y52.615 E3.20186
G1 X29.509 Y52.811 E3.23201
G1 X30.108 Y53.131 E3.26215
G1 X30.634 Y53.559 E3.29223
G1 X31.065 Y54.082 E3.32229
G1 X31.386 Y54.679 E3.35235
G1 X31.584 Y55.327 E3.38239
G1 X31.650 Y56.000 E3.41241
G1 X31.584 Y56.673 E3.44243
G1 X31.386 Y57.321 E3.47247
G1 X31.065 Y57.918 E3.50253
G1 X30.634 Y58.441 E3.53258
G1 X30.108 Y58.869 E3.56267
G1 X29.562 Y59.161 E3.59015
G1 X29.443 Y59.583 F8400.000
G1 E2.39015 F1800.00000
G92 E0
G1 Z0.400 F8400.000
G1 X157.861 Y67.000 F8400.000
G1 Z0.300 F8400.000
G1 E1.30000 F1800.00000
G1 X157.995 Y65.634 E1.37601 F900.000
G1 X158.394 Y64.321 E1.45197
G1 X159.041 Y63.111 E1.52792
G1 X159.911 Y62.049 E1.60393
G1 X160.972 Y61.179 E1.67993
G1 X162.183 Y60.532 E1.75588
G1 X163.496 Y60.133 E1.83187
G1 X164.589 Y60.026 E1.89267
G1 X164.862 Y59.999 E1.90786 F900.000
G1 X166.228 Y60.133 E1.98385
G1 X167.541 Y60.532 E2.05983
G1 X168.751 Y61.179 E2.13578
G1 X169.812 Y62.049 E2.21179
G1 X170.683 Y63.111 E2.28780
G1 X171.330 Y64.321 E2.36375
G1 X171.728 Y65.634 E2.43971
G1 X171.863 Y67.000 E2.51572
G1 X171.728 Y68.366 E2.59173
G1 X171.330 Y69.679 E2.66768
G1 X170.683 Y70.889 E2.74364
G1 X169.812 Y71.951 E2.81965
G1 X168.751 Y72.821 E2.89565
G1 X167.541 Y73.468 E2.97160
G1 X166.228 Y73.867 E3.04759
G1 X164.862 Y74.001 E3.12358
G1 X163.496 Y73.867 E3.19956
G1 X162.183 Y73.468 E3.27555
G1 X160.972 Y72.821 E3.35150
G1 X159.911 Y71.951 E3.42750
G1 X159.041 Y70.889 E3.50352
G1 X158.394 Y69.679 E3.57947
G1 X157.995 Y68.366 E3.65542
G1 X157.867 Y67.060 E3.72811
G1 X158.282 Y67.000 F8400.000
G1 X158.408 Y65.716 E3.79955 F900.000
G1 X158.783 Y64.482 E3.87094
G1 X159.391 Y63.345 E3.94233
G1 X160.209 Y62.347 E4.01378
G1 X161.206 Y61.529 E4.08520
G1 X162.344 Y60.921 E4.15659
G1 X163.578 Y60.546 E4.22801
G1 X164.630 Y60.443 E4.28652
G1 X164.862 Y60.420 E4.29943 F900.000
G1 X166.146 Y60.546 E4.37085
G1 X167.380 Y60.921 E4.44226
G1 X168.517 Y61.529 E4.51365
G1 X169.515 Y62.347 E4.58508
G1 X170.333 Y63.345 E4.65652
G1 X170.941 Y64.482 E4.72791
G1 X171.315 Y65.716 E4.79930
G1 X171.442 Y67.000 E4.87074
G1 X171.315 Y68.284 E4.94218
G1 X170.941 Y69.518 E5.01357
G1 X170.333 Y70.655 E5.08496
G1 X169.515 Y71.653 E5.15640
G1 X168.517 Y72.471 E5.22783
G1 X167.380 Y73.079 E5.29922
G1 X166.146 Y73.454 E5.37064
G1 X164.862 Y73.580 E5.44206
G1 X163.578 Y73.454 E5.51347
G1 X162.344 Y73.079 E5.58489
G1 X161.206 Y72.471 E5.65628
G1 X160.209 Y71.653 E5.72770
G1 X159.391 Y70.655 E5.79915
G1 X158.783 Y69.518 E5.87054
G1 X158.408 Y68.284 E5.94193
G1 X158.288 Y67.060 E6.01005
G1 X158.661 Y67.000 F8400.000
G1 X158.780 Y65.790 E6.06399 F360.000
G1 X159.133 Y64.627 E6.11789
G1 X159.706 Y63.555 E6.17180
G1 X160.477 Y62.615 E6.22575
G1 X161.417 Y61.844 E6.27967
G1 X162.489 Y61.271 E6.33358
G1 X163.652 Y60.918 E6.38751
G1 X164.667 Y60.818 E6.43273
G1 X164.862 Y60.799 E6.44143 F360.000
G1 X166.072 Y60.918 E6.49536
G1 X167.235 Y61.271 E6.54928
G1 X168.307 Y61.844 E6.60319
G1 X169.247 Y62.615 E6.65712
G1 X170.018 Y63.555 E6.71106
G1 X170.591 Y64.627 E6.76497
G1 X170.944 Y65.790 E6.81887
G1 X171.063 Y67.000 E6.87281
G1 X170.944 Y68.210 E6.92676
G1 X170.591 Y69.373 E6.98066
G1 X170.018 Y70.445 E7.03457
G1 X169.247 Y71.385 E7.08851
G1 X168.307 Y72.156 E7.14244
G1 X167.235 Y72.729 E7.19635
G1 X166.072 Y73.082 E7.25027
G1 X164.862 Y73.201 E7.30420
G1 X163.652 Y73.082 E7.35812
G1 X162.489 Y72.729 E7.41205
G1 X161.417 Y72.156 E7.46596
G1 X160.477 Y71.385 E7.51988
G1 X159.706 Y70.445 E7.57383
G1 X159.133 Y69.373 E7.62774
G1 X158.780 Y68.210 E7.68164
G1 X158.667 Y67.060 E7.73292
G1 X158.321 Y66.789 F8400.000
G1 E6.53292 F1800.00000
G92 E0
G1 Z0.400 F8400.000
G1 X167.220 Y59.008 F8400.000
G1 Z0.300 F8400.000
G1 E1.30000 F1800.00000
G1 X166.689 Y58.364 E1.34622 F360.000
G1 X166.293 Y57.629 E1.39246
G1 X166.050 Y56.830 E1.43867
G1 X165.968 Y56.000 E1.48486
G1 X166.050 Y55.170 E1.53105
G1 X166.293 Y54.371 E1.57726
G1 X166.689 Y53.636 E1.62350
G1 X167.220 Y52.992 E1.66972
G1 X167.867 Y52.465 E1.71591
G1 X168.604 Y52.072 E1.76217
G1 X169.405 Y51.830 E1.80848
G1 X170.226 Y51.750 E1.85416 F360.000
G1 X171.067 Y51.830 E1.90090
G1 X171.869 Y52.072 E1.94729
G1 X172.607 Y52.465 E1.99355
G1 X173.253 Y52.992 E2.03975
G1 X173.785 Y53.636 E2.08596
G1 X174.180 Y54.371 E2.13220
G1 X174.423 Y55.170 E2.17841
G1 X174.506 Y56.000 E2.22460
G1 X174.423 Y56.830 E2.27079
G1 X174.180 Y57.629 E2.31700
G1 X173.785 Y58.364 E2.36324
G1 X173.253 Y59.008 E2.40945
G1 X172.607 Y59.535 E2.45565
G1 X171.869 Y59.928 E2.50191
G1 X171.068 Y60.170 E2.54823
G1 X170.237 Y60.251 E2.59448
G1 X169.405 Y60.170 E2.64072
G1 X168.604 Y59.928 E2.68704
G1 X167.867 Y59.535 E2.73330
G1 X167.267 Y59.046 E2.77617
G1 X167.517 Y58.709 F8400.000
G1 X167.038 Y58.130 E2.81781 F360.000
G1 X166.682 Y57.467 E2.85946
G1 X166.463 Y56.748 E2.90108
G1 X166.389 Y56.000 E2.94268
G1 X166.463 Y55.252 E2.98428
G1 X166.682 Y54.533 E3.02591
G1 X167.038 Y53.870 E3.06755
G1 X167.517 Y53.291 E3.10919
G1 X168.100 Y52.815 E3.15084
G1 X168.765 Y52.461 E3.19255
G1 X169.487 Y52.243 E3.23430
G1 X170.227 Y52.171 E3.27547 F360.000
G1 X170.986 Y52.243 E3.31767
G1 X171.708 Y52.461 E3.35946
G1 X172.373 Y52.815 E3.40118
G1 X172.956 Y53.291 E3.44282
G1 X173.435 Y53.870 E3.48446
G1 X173.791 Y54.533 E3.52611
G1 X174.011 Y55.252 E3.56774
G1 X174.085 Y56.000 E3.60933
G1 X174.011 Y56.748 E3.65093
G1 X173.791 Y57.467 E3.69256
G1 X173.435 Y58.130 E3.73421
G1 X172.956 Y58.709 E3.77584
G1 X172.373 Y59.185 E3.81749
G1 X171.708 Y59.539 E3.85920
G1 X170.987 Y59.757 E3.90095
G1 X170.237 Y59.830 E3.94266
G1 X169.487 Y59.757 E3.98438
G1 X168.765 Y59.539 E4.02613
G1 X168.100 Y59.185 E4.06783
G1 X167.564 Y58.747 E4.10616
G1 X167.784 Y58.441 F8400.000
G1 X167.353 Y57.918 E4.13622 F360.000
G1 X167.032 Y57.321 E4.16628
G1 X166.834 Y56.673 E4.19632
G1 X166.768 Y56.000 E4.22634
G1 X166.834 Y55.327 E4.25635
G1 X167.032 Y54.679 E4.28640
G1 X167.353 Y54.082 E4.31645
G1 X167.784 Y53.559 E4.34651
G1 X168.310 Y53.131 E4.37660
G1 X168.909 Y52.811 E4.40674
G1 X169.560 Y52.615 E4.43689
G1 X170.227 Y52.550 E4.46663 F360.000
G1 X170.913 Y52.615 E4.49717
G1 X171.564 Y52.811 E4.52733
G1 X172.164 Y53.131 E4.55747
G1 X172.689 Y53.559 E4.58756
G1 X173.121 Y54.082 E4.61762
G1 X173.441 Y54.679 E4.64768
G1 X173.639 Y55.327 E4.67772
G1 X173.706 Y56.000 E4.70774
G1 X173.639 Y56.673 E4.73775
G1 X173.441 Y57.321 E4.76780
G1 X173.121 Y57.918 E4.79785
G1 X172.689 Y58.441 E4.82791
G1 X172.164 Y58.869 E4.85800
G1 X171.564 Y59.189 E4.88814
G1 X170.913 Y59.385 E4.91829
G1 X170.237 Y59.451 E4.94844
G1 X169.560 Y59.385 E4.97859
G1 X168.909 Y59.189 E5.00874
G1 X168.310 Y58.869 E5.03888
G1 X167.831 Y58.478 E5.06630
G1 X167.395 Y58.533 F8400.000
G1 E3.86630 F1800.00000
G92 E0
G1 Z0.400 F8400.000
G1 X42.139 Y67.000 F8400.000
G1 Z0.300 F8400.000
G1 E1.30000 F1800.00000
G1 X42.005 Y68.366 E1.37601 F900.000
G1 X41.606 Y69.679 E1.45197
G1 X40.959 Y70.889 E1.52792
G1 X40.089 Y71.951 E1.60393
G1 X39.028 Y72.821 E1.67993
G1 X37.817 Y73.468 E1.75588
G1 X36.504 Y73.867 E1.83187
G1 X35.138 Y74.001 E1.90786
G1 X33.772 Y73.867 E1.98385
G1 X32.459 Y73.468 E2.05983
G1 X31.249 Y72.821 E2.13579
G1 X30.188 Y71.951 E2.21179
G1 X29.317 Y70.889 E2.28780
G1 X28.670 Y69.679 E2.36375
G1 X28.272 Y68.366 E2.43971
G1 X28.137 Y67.000 E2.51572
G1 X28.272 Y65.634 E2.59173
G1 X28.670 Y64.321 E2.66769
G1 X29.317 Y63.111 E2.74364
G1 X30.188 Y62.049 E2.81965
G1 X31.249 Y61.179 E2.89565
G1 X32.459 Y60.532 E2.97160
G1 X33.772 Y60.133 E3.04759
G1 X34.865 Y60.026 E3.10839
G1 X35.138 Y59.999 E3.12358 F900.000
G1 X36.504 Y60.133 E3.19956
G1 X37.817 Y60.532 E3.27555
G1 X39.028 Y61.179 E3.35151
G1 X40.089 Y62.049 E3.42750
G1 X40.959 Y63.111 E3.50352
G1 X41.606 Y64.321 E3.57947
G1 X42.005 Y65.634 E3.65543
G1 X42.133 Y66.940 E3.72811
G1 X41.718 Y67.000 F8400.000
G1 X41.592 Y68.284 E3.79955 F900.000
G1 X41.217 Y69.518 E3.87094
G1 X40.609 Y70.655 E3.94233
G1 X39.791 Y71.653 E4.01378
G1 X38.794 Y72.471 E4.08520
G1 X37.656 Y73.079 E4.15659
G1 X36.422 Y73.454 E4.22801
G1 X35.138 Y73.580 E4.29943
G1 X33.854 Y73.454 E4.37085
G1 X32.620 Y73.079 E4.44227
G1 X31.483 Y72.471 E4.51366
G1 X30.485 Y71.653 E4.58508
G1 X29.667 Y70.655 E4.65652
G1 X29.059 Y69.518 E4.72791
G1 X28.685 Y68.284 E4.79930
G1 X28.558 Y67.000 E4.87074
G1 X28.685 Y65.716 E4.94218
G1 X29.059 Y64.482 E5.01357
G1 X29.667 Y63.345 E5.08496
G1 X30.485 Y62.347 E5.15640
G1 X31.483 Y61.529 E5.22783
G1 X32.620 Y60.921 E5.29922
G1 X33.854 Y60.546 E5.37064
G1 X34.906 Y60.443 E5.42915
G1 X35.138 Y60.420 E5.44206 F900.000
G1 X36.422 Y60.546 E5.51347
G1 X37.656 Y60.921 E5.58489
G1 X38.794 Y61.529 E5.65629
G1 X39.791 Y62.347 E5.72770
G1 X40.609 Y63.345 E5.79915
G1 X41.217 Y64.482 E5.87054
G1 X41.592 Y65.716 E5.94193
G1 X41.712 Y66.940 E6.01005
G1 X41.339 Y67.000 F8400.000
G1 X41.220 Y68.210 E6.06399 F360.000
G1 X40.867 Y69.373 E6.11789
G1 X40.294 Y70.445 E6.17180
G1 X39.523 Y71.385 E6.22575
G1 X38.583 Y72.156 E6.27967
G1 X37.511 Y72.729 E6.33358
G1 X36.348 Y73.082 E6.38751
G1 X35.138 Y73.201 E6.44143
G1 X33.928 Y73.082 E6.49536
G1 X32.765 Y72.729 E6.54928
G1 X31.693 Y72.156 E6.60319
G1 X30.753 Y71.385 E6.65712
G1 X29.982 Y70.445 E6.71107
G1 X29.409 Y69.373 E6.76497
G1 X29.056 Y68.210 E6.81887
G1 X28.937 Y67.000 E6.87282
G1 X29.056 Y65.790 E6.92676
G1 X29.409 Y64.627 E6.98066
G1 X29.982 Y63.555 E7.03457
G1 X30.753 Y62.615 E7.08852
G1 X31.693 Y61.844 E7.14244
G1 X32.765 Y61.271 E7.19635
G1 X33.928 Y60.918 E7.25028
G1 X34.943 Y60.818 E7.29550
G1 X35.138 Y60.799 E7.30420 F360.000
G1 X36.348 Y60.918 E7.35812
G1 X37.511 Y61.271 E7.41205
G1 X38.583 Y61.844 E7.46596
G1 X39.523 Y62.615 E7.51988
G1 X40.294 Y63.555 E7.57383
G1 X40.867 Y64.627 E7.62774
G1 X41.220 Y65.790 E7.68164
G1 X41.333 Y66.940 E7.73292
G1 X41.679 Y67.211 F8400.000
G1 E6.53292 F1800.00000
G92 E0
G1 Z0.400 F8400.000
G1 X24.150 Y57.866 F8400.000
G1 Z0.300 F8400.000
