; generated by Slic3r 1.2.9 on 2016-12-17 at 00:34:16

; external perimeters extrusion width = 0.40mm
; perimeters extrusion width = 0.48mm
; infill extrusion width = 0.48mm
; solid infill extrusion width = 0.48mm
; top infill extrusion width = 0.48mm

M107
G28 ; home all axes
G29
G1 Z5 F5000 ; lift Z
G21 ; set units to millimeters
G90 ; use absolute coordinates
M82 ; use absolute distances for extrusion
G92 E0
G1 E-1.20000 F1800.00000
G92 E0
G1 Z0.100 F8400.000
G1 Z0.300 F8400.000
G1 Z0.400 F8400.000
G1 X21.926 Y76.281 F8400.000
G1 Z0.300 F8400.000
G1 E1.30000 F1800.00000
G1 X24.386 Y75.851 E1.43826 F900.000
G1 X175.621 Y75.851 E9.81110
G1 X177.989 Y76.249 E9.94403
G1 X180.097 Y77.397 E10.07696 F900.000
G1 X181.716 Y79.170 E10.20990
G1 X182.667 Y81.375 E10.34283
G1 X182.877 Y83.108 E10.43948
G1 X182.877 Y101.239 E11.44324
G1 X182.480 Y103.607 E11.57617
G1 X181.332 Y105.715 E11.70911
G1 X179.558 Y107.334 E11.84204
G1 X176.379 Y108.455 E12.02868
G1 X28.682 Y123.979 E20.25074
G1 X26.285 Y123.831 E20.38367
G1 X24.068 Y122.910 E20.51661
G1 X22.273 Y121.315 E20.64954
G1 X21.096 Y119.222 E20.78247
G1 X20.707 Y117.521 E20.87910
G1 X17.169 Y83.867 E22.75256
G1 X17.317 Y81.470 E22.88549
G1 X18.238 Y79.253 E23.01843
G1 X19.833 Y77.458 E23.15136
G1 X21.874 Y76.311 E23.28097
G1 X22.136 Y76.687 F8400.000
G1 X22.329 Y76.587 E23.29299 F900.000
G1 X24.386 Y76.270 E23.40825
G1 X175.621 Y76.270 E31.78109
G1 X177.917 Y76.667 E31.91010
G1 X179.946 Y77.813 E32.03911 F900.000
G1 X181.473 Y79.573 E32.16812
G1 X182.321 Y81.743 E32.29714
G1 X182.458 Y83.108 E32.37307
G1 X182.458 Y101.239 E33.37683
G1 X182.061 Y103.535 E33.50585
G1 X180.916 Y105.564 E33.63486
G1 X179.156 Y107.091 E33.76387
G1 X176.335 Y108.039 E33.92861
G1 X28.638 Y123.562 E42.15067
G1 X26.313 Y123.407 E42.27968
G1 X24.175 Y122.481 E42.40869
G1 X22.472 Y120.890 E42.53771
G1 X21.403 Y118.819 E42.66672
G1 X21.123 Y117.477 E42.74264
G1 X17.586 Y83.823 E44.61610
G1 X17.741 Y81.498 E44.74511
G1 X18.668 Y79.360 E44.87412
G1 X20.258 Y77.657 E45.00313
G1 X22.082 Y76.714 E45.11680
G1 X22.327 Y77.095 F8400.000
G1 X22.727 Y76.908 E45.14123 F900.000
G1 X24.386 Y76.689 E45.23391
G1 X175.621 Y76.689 E53.60675
G1 X177.843 Y77.086 E53.73172
G1 X179.790 Y78.228 E53.85669 F900.000
G1 X181.222 Y79.973 E53.98165
G1 X182.039 Y83.108 E54.16104
G1 X182.039 Y101.239 E55.16481
G1 X181.643 Y103.461 E55.28977
G1 X180.501 Y105.408 E55.41474
G1 X178.756 Y106.840 E55.53971
G1 X176.292 Y107.622 E55.68286
G1 X28.594 Y123.146 E63.90492
G1 X26.343 Y122.983 E64.02989
G1 X24.287 Y122.051 E64.15486
G1 X22.681 Y120.466 E64.27983
G1 X21.540 Y117.433 E64.45920
G1 X18.003 Y83.779 E66.33266
G1 X18.165 Y81.528 E66.45763
G1 X19.097 Y79.472 E66.58260
G1 X20.683 Y77.865 E66.70757
G1 X22.273 Y77.120 E66.80478
G1 E65.60478 F1800.00000
G92 E0
G1 Z0.400 F8400.000
G1 X28.810 Y115.667 F8400.000
G1 Z0.300 F8400.000
G1 E1.30000 F1800.00000
G1 X25.493 Y84.104 E3.05706 F900.000
G1 X174.624 Y84.104 E11.31350
G1 X174.624 Y100.342 E12.21246
G1 X28.870 Y115.661 E20.32638
G1 X28.437 Y116.128 F8400.000
G1 X25.027 Y83.685 E22.13239 F900.000
G1 X175.043 Y83.685 E30.43777
G1 X175.043 Y100.719 E31.38080
G1 X28.497 Y116.121 E39.53879
G1 X28.101 Y116.542 F8400.000
G1 X24.608 Y83.308 E41.02114 F540.000
G1 X175.421 Y83.308 E47.71101
G1 X175.421 Y101.058 E48.49839
G1 X28.161 Y116.536 E55.06664
G1 X28.264 Y116.177 F8400.000
G1 X29.234 Y115.383 F8400.000
G1 X29.016 Y115.165 E55.08374 F810.000
G1 X28.946 Y114.503 E55.12060
G1 X29.770 Y115.327 E55.18513
G1 X30.306 Y115.270 E55.21497
G1 X28.876 Y113.841 E55.32693
G1 X28.807 Y113.179 E55.36379
G1 X30.842 Y115.214 E55.52317
G1 X31.378 Y115.158 E55.55301
G1 X28.737 Y112.517 E55.75982
G1 X28.668 Y111.855 E55.79668
G1 X31.914 Y115.101 E56.05092
G1 X32.451 Y115.045 E56.08077
G1 X28.598 Y111.193 E56.38243
G1 X28.528 Y110.530 E56.41929
G1 X32.987 Y114.989 E56.76838
G1 X33.523 Y114.932 E56.79823
G1 X28.459 Y109.868 E57.19475
G1 X28.389 Y109.206 E57.23161
G1 X34.059 Y114.876 E57.67556
G1 X34.595 Y114.820 E57.70541
G1 X28.320 Y108.544 E58.19678
G1 X28.250 Y107.882 E58.23364
G1 X35.131 Y114.763 E58.77244
G1 X35.667 Y114.707 E58.80229
G1 X28.181 Y107.220 E59.38852
G1 X28.111 Y106.558 E59.42538
G1 X36.203 Y114.651 E60.05904
G1 X36.739 Y114.594 E60.08889
G1 X28.041 Y105.896 E60.76997
G1 X27.972 Y105.234 E60.80683
G1 X37.275 Y114.538 E61.53535
G1 X37.812 Y114.482 E61.56519
G1 X27.902 Y104.572 E62.34114
G1 X27.833 Y103.910 E62.37799
G1 X38.348 Y114.425 E63.20136
G1 X38.884 Y114.369 E63.23121
G1 X27.763 Y103.248 E64.10201
G1 X27.693 Y102.586 E64.13887
G1 X39.420 Y114.312 E65.05709
G1 X39.956 Y114.256 E65.08694
G1 X27.624 Y101.924 E66.05259
G1 X27.554 Y101.262 E66.08945
G1 X40.492 Y114.200 E67.10253
G1 X41.028 Y114.143 E67.13238
G1 X27.485 Y100.600 E68.19289
G1 X27.415 Y99.938 E68.22974
G1 X41.564 Y114.087 E69.33768
G1 X42.100 Y114.031 E69.36753
G1 X27.346 Y99.276 E70.52289
G1 X27.276 Y98.614 E70.55975
G1 X42.636 Y113.974 E71.76254
G1 X43.173 Y113.918 E71.79239
G1 X27.206 Y97.952 E73.04261
G1 X27.137 Y97.290 E73.07946
G1 X43.709 Y113.862 E74.37711
G1 X44.245 Y113.805 E74.40696
G1 X27.067 Y96.628 E75.75203
G1 X26.998 Y95.966 E75.78889
G1 X44.781 Y113.749 E77.18139
G1 X45.317 Y113.693 E77.21124
G1 X26.928 Y95.304 E78.65117
G1 X26.858 Y94.642 E78.68803
G1 X45.853 Y113.636 E80.17539
G1 X46.389 Y113.580 E80.20523
G1 X26.789 Y93.980 E81.74002
G1 X26.719 Y93.318 E81.77688
G1 X46.925 Y113.524 E83.35909
G1 X47.461 Y113.467 E83.38894
G1 X26.650 Y92.656 E85.01858
G1 X26.580 Y91.994 E85.05543
G1 X47.998 Y113.411 E86.73250
G1 X48.534 Y113.355 E86.76235
G1 X26.511 Y91.332 E88.48684
G1 X26.441 Y90.670 E88.52370
G1 X49.070 Y113.298 E90.29563
G1 X49.606 Y113.242 E90.32547
G1 X26.371 Y90.007 E92.14482
G1 X26.302 Y89.345 E92.18168
G1 X50.142 Y113.186 E94.04846
G1 X50.678 Y113.129 E94.07831
G1 X26.232 Y88.683 E95.99251
G1 X26.163 Y88.021 E96.02937
G1 X51.214 Y113.073 E97.99101
G1 X51.750 Y113.017 E98.02085
G1 X26.093 Y87.359 E100.02992
G1 X26.023 Y86.697 E100.06677
G1 X52.286 Y112.960 E102.12326
G1 X52.822 Y112.904 E102.15311
G1 X25.954 Y86.035 E104.25703
G1 X25.884 Y85.373 E104.29389
G1 X53.359 Y112.847 E106.44523
G1 X53.895 Y112.791 E106.47508
G1 X25.815 Y84.711 E108.67385
G1 X26.047 Y84.351 E108.69757
G1 X54.431 Y112.735 E110.92011
G1 X54.967 Y112.678 E110.94996
G1 X26.640 Y84.351 E113.16808
G1 X27.232 Y84.351 E113.20088
G1 X55.503 Y112.622 E115.41460
G1 X56.039 Y112.566 E115.44444
G1 X27.825 Y84.351 E117.65374
G1 X28.417 Y84.351 E117.68655
G1 X56.575 Y112.509 E119.89143
G1 X57.111 Y112.453 E119.92128
G1 X29.010 Y84.351 E122.12176
G1 X29.602 Y84.351 E122.15456
G1 X57.647 Y112.397 E124.35062
G1 X58.183 Y112.340 E124.38047
G1 X30.194 Y84.351 E126.57212
G1 X30.787 Y84.351 E126.60492
G1 X58.720 Y112.284 E128.79216
G1 X59.256 Y112.228 E128.82201
G1 X31.379 Y84.351 E131.00483
G1 X31.972 Y84.351 E131.03764
G1 X59.792 Y112.171 E133.21605
G1 X60.328 Y112.115 E133.24590
G1 X32.564 Y84.351 E135.41990
G1 X33.157 Y84.351 E135.45271
G1 X60.864 Y112.059 E137.62230
G1 X61.400 Y112.002 E137.65214
G1 X33.749 Y84.351 E139.81732
G1 X34.342 Y84.351 E139.85012
G1 X61.936 Y111.946 E142.01089
G1 X62.472 Y111.890 E142.04074
G1 X34.934 Y84.351 E144.19709
G1 X35.527 Y84.351 E144.22989
G1 X63.008 Y111.833 E146.38183
G1 X63.544 Y111.777 E146.41168
G1 X36.119 Y84.351 E148.55921
G1 X36.711 Y84.351 E148.59201
G1 X64.081 Y111.721 E150.73513
G1 X64.617 Y111.664 E150.76498
G1 X37.304 Y84.351 E152.90368
G1 X37.896 Y84.351 E152.93649
G1 X65.153 Y111.608 E155.07078
G1 X65.689 Y111.552 E155.10063
G1 X38.489 Y84.351 E157.23051
G1 X39.081 Y84.351 E157.26331
G1 X66.225 Y111.495 E159.38878
G1 X66.761 Y111.439 E159.41863
G1 X39.674 Y84.351 E161.53968
G1 X40.266 Y84.351 E161.57248
G1 X67.297 Y111.382 E163.68913
G1 X67.833 Y111.326 E163.71898
G1 X40.859 Y84.351 E165.83121
G1 X41.451 Y84.351 E165.86401
G1 X68.369 Y111.270 E167.97183
G1 X68.906 Y111.213 E168.00168
G1 X42.043 Y84.351 E170.10509
G1 X42.636 Y84.351 E170.13789
G1 X69.442 Y111.157 E172.23688
G1 X69.978 Y111.101 E172.26673
G1 X43.228 Y84.351 E174.36131
G1 X43.821 Y84.351 E174.39412
G1 X70.514 Y111.044 E176.48429
G1 X71.050 Y110.988 E176.51414
G1 X44.413 Y84.351 E178.59989
G1 X45.006 Y84.351 E178.63270
G1 X71.586 Y110.932 E180.71404
G1 X72.122 Y110.875 E180.74389
G1 X45.598 Y84.351 E182.82083
G1 X46.191 Y84.351 E182.85363
G1 X72.658 Y110.819 E184.92615
G1 X73.194 Y110.763 E184.95600
G1 X46.783 Y84.351 E187.02411
G1 X47.376 Y84.351 E187.05691
G1 X73.730 Y110.706 E189.12061
G1 X74.267 Y110.650 E189.15046
G1 X47.968 Y84.351 E191.20974
G1 X48.560 Y84.351 E191.24255
G1 X74.803 Y110.594 E193.29742
G1 X75.339 Y110.537 E193.32727
G1 X49.153 Y84.351 E195.37773
G1 X49.745 Y84.351 E195.41053
G1 X75.875 Y110.481 E197.45658
G1 X76.411 Y110.425 E197.48643
G1 X50.338 Y84.351 E199.52807
G1 X50.930 Y84.351 E199.56087
G1 X76.947 Y110.368 E201.59810
G1 X77.483 Y110.312 E201.62794
G1 X51.523 Y84.351 E203.66076
G1 X52.115 Y84.351 E203.69356
G1 X78.019 Y110.256 E205.72196
G1 X78.555 Y110.199 E205.75181
G1 X52.708 Y84.351 E207.77580
G1 X53.300 Y84.351 E207.80860
G1 X79.091 Y110.143 E209.82818
G1 X79.628 Y110.087 E209.85802
G1 X53.892 Y84.351 E211.87319
G1 X54.485 Y84.351 E211.90599
G1 X80.164 Y110.030 E213.91674
G1 X80.700 Y109.974 E213.94659
G1 X55.077 Y84.351 E215.95293
G1 X55.670 Y84.351 E215.98573
G1 X81.236 Y109.917 E217.98766
G1 X81.772 Y109.861 E218.01751
G1 X56.262 Y84.351 E220.01502
G1 X56.855 Y84.351 E220.04783
G1 X82.308 Y109.805 E222.04093
G1 X82.844 Y109.748 E222.07078
G1 X57.447 Y84.351 E224.05947
G1 X58.040 Y84.351 E224.09227
G1 X83.380 Y109.692 E226.07655
G1 X83.916 Y109.636 E226.10640
G1 X58.632 Y84.351 E228.08627
G1 X59.224 Y84.351 E228.11907
G1 X84.452 Y109.579 E230.09452
G1 X84.989 Y109.523 E230.12437
G1 X59.817 Y84.351 E232.09541
G1 X60.409 Y84.351 E232.12822
G1 X85.525 Y109.467 E234.09485
G1 X86.061 Y109.410 E234.12470
G1 X61.002 Y84.351 E236.08691
G1 X61.594 Y84.351 E236.11972
G1 X86.597 Y109.354 E238.07752
G1 X87.133 Y109.298 E238.10737
G1 X62.187 Y84.351 E240.06076
G1 X62.779 Y84.351 E240.09357
G1 X87.669 Y109.241 E242.04255
G1 X88.205 Y109.185 E242.07240
G1 X63.372 Y84.351 E244.01697
G1 X63.964 Y84.351 E244.04977
G1 X88.741 Y109.129 E245.98993
G1 X89.277 Y109.072 E246.01978
G1 X64.557 Y84.351 E247.95552
G1 X65.149 Y84.351 E247.98832
G1 X89.814 Y109.016 E249.91966
G1 X90.350 Y108.960 E249.94950
G1 X65.741 Y84.351 E251.87643
G1 X66.334 Y84.351 E251.90923
G1 X90.886 Y108.903 E253.83174
G1 X91.422 Y108.847 E253.86159
G1 X66.926 Y84.351 E255.77968
G1 X67.519 Y84.351 E255.81249
G1 X91.958 Y108.791 E257.72617
G1 X92.494 Y108.734 E257.75602
G1 X68.111 Y84.351 E259.66529
G1 X68.704 Y84.351 E259.69809
G1 X93.030 Y108.678 E261.60295
G1 X93.566 Y108.621 E261.63280
G1 X69.296 Y84.351 E263.53325
G1 X69.889 Y84.351 E263.56605
G1 X94.102 Y108.565 E265.46209
G1 X94.638 Y108.509 E265.49194
G1 X70.481 Y84.351 E267.38356
G1 X71.073 Y84.351 E267.41636
G1 X95.175 Y108.452 E269.30357
G1 X95.711 Y108.396 E269.33342
G1 X71.666 Y84.351 E271.21622
G1 X72.258 Y84.351 E271.24902
G1 X96.247 Y108.340 E273.12741
G1 X96.783 Y108.283 E273.15726
G1 X72.851 Y84.351 E275.03123
G1 X73.443 Y84.351 E275.06404
G1 X97.319 Y108.227 E276.93360
G1 X97.855 Y108.171 E276.96345
G1 X74.036 Y84.351 E278.82860
G1 X74.628 Y84.351 E278.86140
G1 X98.391 Y108.114 E280.72214
G1 X98.927 Y108.058 E280.75199
G1 X75.221 Y84.351 E282.60831
G1 X75.813 Y84.351 E282.64112
G1 X99.463 Y108.002 E284.49303
G1 X99.999 Y107.945 E284.52288
G1 X76.406 Y84.351 E286.37038
G1 X76.998 Y84.351 E286.40319
G1 X100.536 Y107.889 E288.24628
G1 X101.072 Y107.833 E288.27612
G1 X77.590 Y84.351 E290.11480
G1 X78.183 Y84.351 E290.14760
G1 X101.608 Y107.776 E291.98187
G1 X102.144 Y107.720 E292.01172
G1 X78.775 Y84.351 E293.84157
G1 X79.368 Y84.351 E293.87437
G1 X102.680 Y107.664 E295.69981
G1 X103.216 Y107.607 E295.72966
G1 X79.960 Y84.351 E297.55069
G1 X80.553 Y84.351 E297.58349
G1 X103.752 Y107.551 E299.40011
G1 X104.288 Y107.495 E299.42996
G1 X81.145 Y84.351 E301.24216
G1 X81.738 Y84.351 E301.27497
G1 X104.824 Y107.438 E303.08276
G1 X105.360 Y107.382 E303.11261
G1 X82.330 Y84.351 E304.91599
G1 X82.922 Y84.351 E304.94879
G1 X105.897 Y107.326 E306.74776
G1 X106.433 Y107.269 E306.77761
G1 X83.515 Y84.351 E308.57216
G1 X84.107 Y84.351 E308.60497
G1 X106.969 Y107.213 E310.39511
G1 X107.505 Y107.156 E310.42496
G1 X84.700 Y84.351 E312.21069
G1 X85.292 Y84.351 E312.24349
G1 X108.041 Y107.100 E314.02481
G1 X108.577 Y107.044 E314.05466
G1 X85.885 Y84.351 E315.83157
G1 X86.477 Y84.351 E315.86437
G1 X109.113 Y106.987 E317.63687
G1 X109.649 Y106.931 E317.66671
G1 X87.070 Y84.351 E319.43480
G1 X87.662 Y84.351 E319.46760
G1 X110.185 Y106.875 E321.23127
G1 X110.722 Y106.818 E321.26112
G1 X88.254 Y84.351 E323.02038
G1 X88.847 Y84.351 E323.05318
G1 X111.258 Y106.762 E324.80803
G1 X111.794 Y106.706 E324.83788
G1 X89.439 Y84.351 E326.58831
G1 X90.032 Y84.351 E326.62111
G1 X112.330 Y106.649 E328.36714
G1 X112.866 Y106.593 E328.39698
G1 X90.624 Y84.351 E330.13859
G1 X91.217 Y84.351 E330.17140
G1 X113.402 Y106.537 E331.90860
G1 X113.938 Y106.480 E331.93844
G1 X91.809 Y84.351 E333.67123
G1 X92.402 Y84.351 E333.70403
G1 X114.474 Y106.424 E335.43241
G1 X115.010 Y106.368 E335.46225
G1 X92.994 Y84.351 E337.18622
G1 X93.587 Y84.351 E337.21902
G1 X115.546 Y106.311 E338.93857
G1 X116.083 Y106.255 E338.96842
G1 X94.179 Y84.351 E340.68355
G1 X94.771 Y84.351 E340.71636
G1 X116.619 Y106.199 E342.42708
G1 X117.155 Y106.142 E342.45693
G1 X95.364 Y84.351 E344.16324
G1 X95.956 Y84.351 E344.19605
G1 X117.691 Y106.086 E345.89795
G1 X118.227 Y106.030 E345.92779
G1 X96.549 Y84.351 E347.62528
G1 X97.141 Y84.351 E347.65809
G1 X118.763 Y105.973 E349.35116
G1 X119.299 Y105.917 E349.38101
G1 X97.734 Y84.351 E351.06967
G1 X98.326 Y84.351 E351.10248
G1 X119.835 Y105.861 E352.78673
G1 X120.371 Y105.804 E352.81658
G1 X98.919 Y84.351 E354.49642
G1 X99.511 Y84.351 E354.52922
G1 X120.907 Y105.748 E356.20465
G1 X121.444 Y105.691 E356.23450
G1 X100.103 Y84.351 E357.90551
G1 X100.696 Y84.351 E357.93832
G1 X121.980 Y105.635 E359.60492
G1 X122.516 Y105.579 E359.63477
G1 X101.288 Y84.351 E361.29696
G1 X101.881 Y84.351 E361.32976
G1 X123.052 Y105.522 E362.98754
G1 X123.588 Y105.466 E363.01739
G1 X102.473 Y84.351 E364.67075
G1 X103.066 Y84.351 E364.70356
G1 X124.124 Y105.410 E366.35251
G1 X124.660 Y105.353 E366.38236
G1 X103.658 Y84.351 E368.02690
G1 X104.251 Y84.351 E368.05971
G1 X125.196 Y105.297 E369.69984
G1 X125.732 Y105.241 E369.72968
G1 X104.843 Y84.351 E371.36540
G1 X105.436 Y84.351 E371.39821
G1 X126.268 Y105.184 E373.02951
G1 X126.805 Y105.128 E373.05936
G1 X106.028 Y84.351 E374.68625
G1 X106.620 Y84.351 E374.71906
G1 X127.341 Y105.072 E376.34154
G1 X127.877 Y105.015 E376.37139
G1 X107.213 Y84.351 E377.98946
G1 X107.805 Y84.351 E378.02226
G1 X128.413 Y104.959 E379.63592
G1 X128.949 Y104.903 E379.66577
G1 X108.398 Y84.351 E381.27501
G1 X108.990 Y84.351 E381.30781
G1 X129.485 Y104.846 E382.91265
G1 X130.021 Y104.790 E382.94250
G1 X109.583 Y84.351 E384.54292
G1 X110.175 Y84.351 E384.57572
G1 X130.557 Y104.734 E386.17173
G1 X131.093 Y104.677 E386.20158
G1 X110.768 Y84.351 E387.79317
G1 X111.360 Y84.351 E387.82598
G1 X131.630 Y104.621 E389.41316
G1 X132.166 Y104.565 E389.44301
G1 X111.952 Y84.351 E391.02578
G1 X112.545 Y84.351 E391.05859
G1 X132.702 Y104.508 E392.63695
G1 X133.238 Y104.452 E392.66679
G1 X113.137 Y84.351 E394.24074
G1 X113.730 Y84.351 E394.27354
G1 X133.774 Y104.396 E395.84308
G1 X134.310 Y104.339 E395.87293
G1 X114.322 Y84.351 E397.43805
G1 X114.915 Y84.351 E397.47086
G1 X134.846 Y104.283 E399.03157
G1 X135.382 Y104.226 E399.06141
G1 X115.507 Y84.351 E400.61771
G1 X116.100 Y84.351 E400.65052
G1 X135.918 Y104.170 E402.20241
G1 X136.454 Y104.114 E402.23225
G1 X116.692 Y84.351 E403.77973
G1 X117.284 Y84.351 E403.81253
G1 X136.991 Y104.057 E405.35559
G1 X137.527 Y104.001 E405.38544
G1 X117.877 Y84.351 E406.92409
G1 X118.469 Y84.351 E406.95690
G1 X138.063 Y103.945 E408.49114
G1 X138.599 Y103.888 E408.52098
G1 X119.062 Y84.351 E410.05081
G1 X119.654 Y84.351 E410.08361
G1 X139.135 Y103.832 E411.60903
