; generated by Slic3r 1.2.9 on 2016-12-17 at 00:31:47

; external perimeters extrusion width = 0.40mm
; perimeters extrusion width = 0.48mm
; infill extrusion width = 0.48mm
; solid infill extrusion width = 0.48mm
; top infill extrusion width = 0.48mm

M107
G28 ; home all axes
G29
G1 Z5 F5000 ; lift Z
G21 ; set units to millimeters
G90 ; use absolute coordinates
M82 ; use absolute distances for extrusion
G92 E0
G1 E-1.20000 F1800.00000
G92 E0
G1 Z0.100 F8400.000
G1 Z0.300 F8400.000
G1 Z0.400 F8400.000
G1 X20.678 Y76.281 F8400.000
G1 Z0.300 F8400.000
G1 E1.30000 F1800.00000
G1 X23.138 Y75.851 E1.43826 F900.000
G1 X176.862 Y75.851 E9.94891
G1 X179.230 Y76.249 E10.08184
G1 X181.339 Y77.397 E10.21477 F900.000
G1 X182.957 Y79.170 E10.34771
G1 X183.908 Y81.375 E10.48064
G1 X184.118 Y83.108 E10.57729
G1 X184.118 Y101.108 E11.57383
G1 X183.721 Y103.476 E11.70676
G1 X182.573 Y105.585 E11.83969
G1 X180.799 Y107.203 E11.97263
G1 X177.620 Y108.325 E12.15926
G1 X27.447 Y124.109 E20.51913
G1 X25.051 Y123.961 E20.65206
G1 X22.834 Y123.040 E20.78499
G1 X21.039 Y121.445 E20.91793
G1 X19.862 Y119.352 E21.05086
G1 X19.472 Y117.650 E21.14750
G1 X15.921 Y83.867 E23.02819
G1 X16.069 Y81.470 E23.16113
G1 X16.990 Y79.253 E23.29406
G1 X18.585 Y77.458 E23.42699
G1 X20.626 Y76.311 E23.55660
G1 X20.888 Y76.687 F8400.000
G1 X21.081 Y76.587 E23.56862 F900.000
G1 X23.138 Y76.270 E23.68388
G1 X176.862 Y76.270 E32.19453
G1 X179.158 Y76.667 E32.32354
G1 X181.188 Y77.813 E32.45255 F900.000
G1 X182.715 Y79.573 E32.58156
G1 X183.562 Y81.743 E32.71058
G1 X183.700 Y83.108 E32.78651
G1 X183.700 Y101.108 E33.78305
G1 X183.302 Y103.404 E33.91206
G1 X182.157 Y105.434 E34.04108
G1 X180.397 Y106.961 E34.17009
G1 X177.577 Y107.908 E34.33482
G1 X27.404 Y123.692 E42.69469
G1 X25.079 Y123.537 E42.82370
G1 X22.940 Y122.611 E42.95271
G1 X21.238 Y121.020 E43.08173
G1 X20.168 Y118.949 E43.21074
G1 X19.889 Y117.607 E43.28667
G1 X16.338 Y83.823 E45.16736
G1 X16.493 Y81.498 E45.29637
G1 X17.419 Y79.360 E45.42538
G1 X19.010 Y77.657 E45.55440
G1 X20.834 Y76.714 E45.66807
G1 X21.079 Y77.095 F8400.000
G1 X21.479 Y76.908 E45.69250 F900.000
G1 X23.138 Y76.689 E45.78517
G1 X176.862 Y76.689 E54.29582
G1 X179.084 Y77.086 E54.42079
G1 X181.031 Y78.228 E54.54576 F900.000
G1 X182.463 Y79.973 E54.67073
G1 X183.281 Y83.108 E54.85012
G1 X183.281 Y101.108 E55.84666
G1 X182.884 Y103.330 E55.97162
G1 X181.742 Y105.277 E56.09659
G1 X179.997 Y106.709 E56.22156
G1 X177.533 Y107.492 E56.36471
G1 X27.360 Y123.276 E64.72458
G1 X25.109 Y123.113 E64.84954
G1 X23.053 Y122.181 E64.97451
G1 X21.446 Y120.595 E65.09948
G1 X20.305 Y117.563 E65.27887
G1 X16.754 Y83.779 E67.15956
G1 X16.917 Y81.528 E67.28452
G1 X17.849 Y79.472 E67.40949
G1 X19.435 Y77.865 E67.53446
G1 X21.025 Y77.120 E67.63168
G1 E66.43168 F1800.00000
G92 E0
G1 Z0.400 F8400.000
G1 X33.389 Y113.678 F8400.000
G1 Z0.300 F8400.000
G1 E1.30000 F1800.00000
G1 X33.545 Y115.170 E1.38305 F900.000
G1 X27.576 Y115.797 E1.71538
G1 X24.244 Y84.104 E3.47966
G1 X175.866 Y84.104 E11.87392
G1 X175.866 Y100.211 E12.76565
G1 X169.797 Y100.849 E13.10348
G1 X169.640 Y99.357 E13.18652
G1 X167.646 Y99.567 E13.29752
G1 X166.758 Y91.112 E13.76819
G1 X43.654 Y91.112 E20.58363
G1 X33.149 Y92.216 E21.16842
G1 X35.383 Y113.468 E22.35149
G1 X33.448 Y113.672 E22.45917
G1 X33.849 Y114.051 F8400.000
G1 X34.006 Y115.542 E22.54222 F900.000
G1 X27.203 Y116.257 E22.92093
G1 X23.779 Y83.685 E24.73417
G1 X176.285 Y83.685 E33.17736
G1 X176.285 Y100.588 E34.11317
G1 X169.424 Y101.309 E34.49506
G1 X169.268 Y99.818 E34.57811
G1 X167.274 Y100.027 E34.68911
G1 X166.381 Y91.531 E35.16209
G1 X43.676 Y91.531 E41.95543
G1 X33.609 Y92.589 E42.51582
G1 X35.843 Y113.841 E43.69889
G1 X33.909 Y114.044 E43.80657
G1 X34.264 Y114.386 F8400.000
G1 X34.420 Y115.878 E43.87311 F540.000
G1 X26.867 Y116.672 E44.21001
G1 X23.360 Y83.308 E45.69816
G1 X176.662 Y83.308 E52.49844
G1 X176.662 Y100.928 E53.28004
G1 X169.089 Y101.724 E53.61783
G1 X168.932 Y100.232 E53.68437
G1 X166.938 Y100.442 E53.77331
G1 X166.041 Y91.908 E54.15394
G1 X43.696 Y91.908 E59.58104
G1 X34.024 Y92.925 E60.01243
G1 X36.258 Y114.177 E60.96034
G1 X34.323 Y114.380 E61.04662
G1 X33.866 Y114.428 F8400.000
G1 E59.84662 F1800.00000
G92 E0
G1 Z0.400 F8400.000
G1 X27.999 Y115.513 F8400.000
G1 Z0.300 F8400.000
G1 E1.30000 F1800.00000
G1 X27.781 Y115.294 E1.31712 F810.000
G1 X27.711 Y114.632 E1.35408
G1 X28.536 Y115.456 E1.41875
G1 X29.073 Y115.400 E1.44868
G1 X27.642 Y113.969 E1.56091
G1 X27.572 Y113.306 E1.59786
G1 X29.610 Y115.344 E1.75764
G1 X30.147 Y115.287 E1.78757
G1 X27.502 Y112.643 E1.99490
G1 X27.433 Y111.980 E2.03186
G1 X30.683 Y115.231 E2.28675
G1 X31.220 Y115.174 E2.31667
G1 X27.363 Y111.317 E2.61911
G1 X27.293 Y110.654 E2.65607
G1 X31.757 Y115.118 E3.00606
G1 X32.294 Y115.062 E3.03599
G1 X27.224 Y109.991 E3.43353
G1 X27.154 Y109.328 E3.47049
G1 X32.831 Y115.005 E3.91559
G1 X33.252 Y114.833 E3.94080
G1 X27.084 Y108.665 E4.42436
G1 X27.015 Y108.003 E4.46132
G1 X33.182 Y114.170 E4.94488
G1 X33.112 Y113.507 E4.98184
G1 X26.945 Y107.340 E5.46540
G1 X26.875 Y106.677 E5.50235
G1 X33.613 Y113.415 E6.03065
G1 X34.150 Y113.358 E6.06058
G1 X26.806 Y106.014 E6.63643
G1 X26.736 Y105.351 E6.67338
G1 X34.687 Y113.302 E7.29679
G1 X35.086 Y113.108 E7.32141
G1 X26.666 Y104.688 E7.98160
G1 X26.597 Y104.025 E8.01856
G1 X35.017 Y112.445 E8.67876
G1 X34.947 Y111.782 E8.71571
G1 X26.527 Y103.362 E9.37591
G1 X26.457 Y102.699 E9.41287
G1 X34.877 Y111.119 E10.07306
G1 X34.808 Y110.456 E10.11002
G1 X26.388 Y102.036 E10.77022
G1 X26.318 Y101.373 E10.80717
G1 X34.738 Y109.794 E11.46737
G1 X34.668 Y109.131 E11.50433
G1 X26.248 Y100.711 E12.16453
G1 X26.179 Y100.048 E12.20148
G1 X34.599 Y108.468 E12.86168
G1 X34.529 Y107.805 E12.89864
G1 X26.109 Y99.385 E13.55883
G1 X26.039 Y98.722 E13.59579
G1 X34.459 Y107.142 E14.25599
G1 X34.390 Y106.479 E14.29294
G1 X25.970 Y98.059 E14.95314
G1 X25.900 Y97.396 E14.99010
G1 X34.320 Y105.816 E15.65029
G1 X34.250 Y105.153 E15.68725
G1 X25.830 Y96.733 E16.34745
G1 X25.761 Y96.070 E16.38440
G1 X34.181 Y104.490 E17.04460
G1 X34.111 Y103.827 E17.08156
G1 X25.691 Y95.407 E17.74175
G1 X25.621 Y94.744 E17.77871
G1 X34.041 Y103.164 E18.43891
G1 X33.972 Y102.502 E18.47586
G1 X25.552 Y94.082 E19.13606
G1 X25.482 Y93.419 E19.17302
G1 X33.902 Y101.839 E19.83322
G1 X33.832 Y101.176 E19.87017
G1 X25.412 Y92.756 E20.53037
G1 X25.342 Y92.093 E20.56732
G1 X33.763 Y100.513 E21.22752
G1 X33.693 Y99.850 E21.26448
G1 X25.273 Y91.430 E21.92468
G1 X25.203 Y90.767 E21.96163
G1 X33.623 Y99.187 E22.62183
G1 X33.554 Y98.524 E22.65879
G1 X25.133 Y90.104 E23.31898
G1 X25.064 Y89.441 E23.35594
G1 X33.484 Y97.861 E24.01614
G1 X33.414 Y97.198 E24.05309
G1 X24.994 Y88.778 E24.71329
G1 X24.924 Y88.115 E24.75025
G1 X33.345 Y96.535 E25.41044
G1 X33.275 Y95.873 E25.44740
G1 X24.855 Y87.452 E26.10760
G1 X24.785 Y86.790 E26.14455
G1 X33.205 Y95.210 E26.80475
G1 X33.135 Y94.547 E26.84171
G1 X24.715 Y86.127 E27.50190
G1 X24.646 Y85.464 E27.53886
G1 X33.066 Y93.884 E28.19906
G1 X32.996 Y93.221 E28.23601
G1 X24.576 Y84.801 E28.89621
G1 X24.720 Y84.351 E28.92237
G1 X32.926 Y92.558 E29.56583
G1 X32.958 Y91.996 E29.59702
G1 X25.313 Y84.351 E30.19645
G1 X25.906 Y84.351 E30.22934
G1 X33.495 Y91.940 E30.82434
G1 X34.032 Y91.884 E30.85427
G1 X26.500 Y84.351 E31.44485
G1 X27.093 Y84.351 E31.47774
G1 X34.569 Y91.827 E32.06390
G1 X35.105 Y91.771 E32.09382
G1 X27.686 Y84.351 E32.67556
G1 X28.279 Y84.351 E32.70845
G1 X35.642 Y91.714 E33.28576
G1 X36.179 Y91.658 E33.31568
G1 X28.872 Y84.351 E33.88857
G1 X29.466 Y84.351 E33.92146
G1 X36.716 Y91.601 E34.48992
G1 X37.253 Y91.545 E34.51985
G1 X30.059 Y84.351 E35.08389
G1 X30.652 Y84.351 E35.11678
G1 X37.789 Y91.489 E35.67639
G1 X38.326 Y91.432 E35.70632
G1 X31.245 Y84.351 E36.26151
G1 X31.839 Y84.351 E36.29440
G1 X38.863 Y91.376 E36.84517
G1 X39.400 Y91.319 E36.87509
G1 X32.432 Y84.351 E37.42144
G1 X33.025 Y84.351 E37.45433
G1 X39.937 Y91.263 E37.99625
G1 X40.473 Y91.207 E38.02617
G1 X33.618 Y84.351 E38.56367
G1 X34.212 Y84.351 E38.59656
G1 X41.010 Y91.150 E39.12963
G1 X41.547 Y91.094 E39.15956
G1 X34.805 Y84.351 E39.68820
G1 X35.398 Y84.351 E39.72109
G1 X42.084 Y91.037 E40.24532
G1 X42.621 Y90.981 E40.27524
G1 X35.991 Y84.351 E40.79504
G1 X36.585 Y84.351 E40.82793
G1 X43.158 Y90.924 E41.34331
G1 X43.694 Y90.868 E41.37324
G1 X37.178 Y84.351 E41.88419
G1 X37.771 Y84.351 E41.91708
G1 X44.284 Y90.865 E42.42778
G1 X44.878 Y90.865 E42.46067
G1 X38.364 Y84.351 E42.97137
G1 X38.957 Y84.351 E43.00426
G1 X45.471 Y90.865 E43.51496
G1 X46.064 Y90.865 E43.54785
G1 X39.551 Y84.351 E44.05855
G1 X40.144 Y84.351 E44.09144
G1 X46.657 Y90.865 E44.60214
G1 X47.251 Y90.865 E44.63503
G1 X40.737 Y84.351 E45.14573
G1 X41.330 Y84.351 E45.17862
G1 X47.844 Y90.865 E45.68932
G1 X48.437 Y90.865 E45.72221
G1 X41.924 Y84.351 E46.23291
G1 X42.517 Y84.351 E46.26580
G1 X49.030 Y90.865 E46.77650
G1 X49.623 Y90.865 E46.80940
G1 X43.110 Y84.351 E47.32010
G1 X43.703 Y84.351 E47.35299
G1 X50.217 Y90.865 E47.86369
G1 X50.810 Y90.865 E47.89658
G1 X44.297 Y84.351 E48.40728
G1 X44.890 Y84.351 E48.44017
G1 X51.403 Y90.865 E48.95087
G1 X51.996 Y90.865 E48.98376
G1 X45.483 Y84.351 E49.49446
G1 X46.076 Y84.351 E49.52735
G1 X52.590 Y90.865 E50.03805
G1 X53.183 Y90.865 E50.07094
G1 X46.669 Y84.351 E50.58164
G1 X47.263 Y84.351 E50.61453
G1 X53.776 Y90.865 E51.12523
G1 X54.369 Y90.865 E51.15812
G1 X47.856 Y84.351 E51.66882
G1 X48.449 Y84.351 E51.70171
G1 X54.963 Y90.865 E52.21241
G1 X55.556 Y90.865 E52.24530
G1 X49.042 Y84.351 E52.75600
G1 X49.636 Y84.351 E52.78889
G1 X56.149 Y90.865 E53.29959
G1 X56.742 Y90.865 E53.33248
G1 X50.229 Y84.351 E53.84318
G1 X50.822 Y84.351 E53.87607
G1 X57.335 Y90.865 E54.38677
G1 X57.929 Y90.865 E54.41966
G1 X51.415 Y84.351 E54.93036
G1 X52.009 Y84.351 E54.96325
G1 X58.522 Y90.865 E55.47395
G1 X59.115 Y90.865 E55.50684
G1 X52.602 Y84.351 E56.01754
G1 X53.195 Y84.351 E56.05043
G1 X59.708 Y90.865 E56.56113
G1 X60.302 Y90.865 E56.59402
G1 X53.788 Y84.351 E57.10472
G1 X54.381 Y84.351 E57.13761
G1 X60.895 Y90.865 E57.64831
G1 X61.488 Y90.865 E57.68121
G1 X54.975 Y84.351 E58.19191
G1 X55.568 Y84.351 E58.22480
G1 X62.081 Y90.865 E58.73550
G1 X62.675 Y90.865 E58.76839
G1 X56.161 Y84.351 E59.27909
G1 X56.754 Y84.351 E59.31198
G1 X63.268 Y90.865 E59.82268
G1 X63.861 Y90.865 E59.85557
G1 X57.348 Y84.351 E60.36627
G1 X57.941 Y84.351 E60.39916
G1 X64.454 Y90.865 E60.90986
G1 X65.047 Y90.865 E60.94275
G1 X58.534 Y84.351 E61.45345
G1 X59.127 Y84.351 E61.48634
G1 X65.641 Y90.865 E61.99704
G1 X66.234 Y90.865 E62.02993
G1 X59.721 Y84.351 E62.54063
G1 X60.314 Y84.351 E62.57352
G1 X66.827 Y90.865 E63.08422
G1 X67.420 Y90.865 E63.11711
G1 X60.907 Y84.351 E63.62781
G1 X61.500 Y84.351 E63.66070
G1 X68.014 Y90.865 E64.17140
G1 X68.607 Y90.865 E64.20429
G1 X62.093 Y84.351 E64.71499
G1 X62.687 Y84.351 E64.74788
G1 X69.200 Y90.865 E65.25858
G1 X69.793 Y90.865 E65.29147
G1 X63.280 Y84.351 E65.80217
G1 X63.873 Y84.351 E65.83506
G1 X70.387 Y90.865 E66.34576
G1 X70.980 Y90.865 E66.37865
G1 X64.466 Y84.351 E66.88935
G1 X65.060 Y84.351 E66.92224
G1 X71.573 Y90.865 E67.43294
G1 X72.166 Y90.865 E67.46583
G1 X65.653 Y84.351 E67.97654
G1 X66.246 Y84.351 E68.00943
G1 X72.760 Y90.865 E68.52013
G1 X73.353 Y90.865 E68.55302
G1 X66.839 Y84.351 E69.06372
G1 X67.433 Y84.351 E69.09661
G1 X73.946 Y90.865 E69.60731
G1 X74.539 Y90.865 E69.64020
G1 X68.026 Y84.351 E70.15090
G1 X68.619 Y84.351 E70.18379
G1 X75.132 Y90.865 E70.69449
G1 X75.726 Y90.865 E70.72738
G1 X69.212 Y84.351 E71.23808
G1 X69.805 Y84.351 E71.27097
G1 X76.319 Y90.865 E71.78167
G1 X76.912 Y90.865 E71.81456
G1 X70.399 Y84.351 E72.32526
G1 X70.992 Y84.351 E72.35815
G1 X77.505 Y90.865 E72.86885
G1 X78.099 Y90.865 E72.90174
G1 X71.585 Y84.351 E73.41244
G1 X72.178 Y84.351 E73.44533
G1 X78.692 Y90.865 E73.95603
G1 X79.285 Y90.865 E73.98892
G1 X72.772 Y84.351 E74.49962
G1 X73.365 Y84.351 E74.53251
G1 X79.878 Y90.865 E75.04321
G1 X80.472 Y90.865 E75.07610
G1 X73.958 Y84.351 E75.58680
G1 X74.551 Y84.351 E75.61969
G1 X81.065 Y90.865 E76.13039
G1 X81.658 Y90.865 E76.16328
G1 X75.145 Y84.351 E76.67398
G1 X75.738 Y84.351 E76.70687
G1 X82.251 Y90.865 E77.21757
G1 X82.844 Y90.865 E77.25046
G1 X76.331 Y84.351 E77.76116
G1 X76.924 Y84.351 E77.79405
G1 X83.438 Y90.865 E78.30476
G1 X84.031 Y90.865 E78.33765
G1 X77.518 Y84.351 E78.84835
G1 X78.111 Y84.351 E78.88124
G1 X84.624 Y90.865 E79.39194
G1 X85.217 Y90.865 E79.42483
G1 X78.704 Y84.351 E79.93553
G1 X79.297 Y84.351 E79.96842
G1 X85.811 Y90.865 E80.47912
G1 X86.404 Y90.865 E80.51201
G1 X79.890 Y84.351 E81.02271
G1 X80.484 Y84.351 E81.05560
G1 X86.997 Y90.865 E81.56630
G1 X87.590 Y90.865 E81.59919
G1 X81.077 Y84.351 E82.10989
G1 X81.670 Y84.351 E82.14278
G1 X88.184 Y90.865 E82.65348
G1 X88.777 Y90.865 E82.68637
G1 X82.263 Y84.351 E83.19707
G1 X82.857 Y84.351 E83.22996
G1 X89.370 Y90.865 E83.74066
G1 X89.963 Y90.865 E83.77355
G1 X83.450 Y84.351 E84.28425
G1 X84.043 Y84.351 E84.31714
G1 X90.556 Y90.865 E84.82784
G1 X91.150 Y90.865 E84.86073
G1 X84.636 Y84.351 E85.37143
G1 X85.230 Y84.351 E85.40432
G1 X91.743 Y90.865 E85.91502
G1 X92.336 Y90.865 E85.94791
G1 X85.823 Y84.351 E86.45861
G1 X86.416 Y84.351 E86.49150
G1 X92.929 Y90.865 E87.00220
G1 X93.523 Y90.865 E87.03509
G1 X87.009 Y84.351 E87.54579
G1 X87.602 Y84.351 E87.57868
G1 X94.116 Y90.865 E88.08938
G1 X94.709 Y90.865 E88.12227
G1 X88.196 Y84.351 E88.63298
G1 X88.789 Y84.351 E88.66587
G1 X95.302 Y90.865 E89.17657
G1 X95.896 Y90.865 E89.20946
G1 X89.382 Y84.351 E89.72016
G1 X89.975 Y84.351 E89.75305
G1 X96.489 Y90.865 E90.26375
G1 X97.082 Y90.865 E90.29664
G1 X90.569 Y84.351 E90.80734
G1 X91.162 Y84.351 E90.84023
G1 X97.675 Y90.865 E91.35093
G1 X98.268 Y90.865 E91.38382
G1 X91.755 Y84.351 E91.89452
G1 X92.348 Y84.351 E91.92741
G1 X98.862 Y90.865 E92.43811
G1 X99.455 Y90.865 E92.47100
G1 X92.942 Y84.351 E92.98170
G1 X93.535 Y84.351 E93.01459
G1 X100.048 Y90.865 E93.52529
G1 X100.641 Y90.865 E93.55818
G1 X94.128 Y84.351 E94.06888
G1 X94.721 Y84.351 E94.10177
G1 X101.235 Y90.865 E94.61247
G1 X101.828 Y90.865 E94.64536
G1 X95.314 Y84.351 E95.15606
G1 X95.908 Y84.351 E95.18895
G1 X102.421 Y90.865 E95.69965
G1 X103.014 Y90.865 E95.73254
G1 X96.501 Y84.351 E96.24324
G1 X97.094 Y84.351 E96.27613
G1 X103.608 Y90.865 E96.78683
G1 X104.201 Y90.865 E96.81972
G1 X97.687 Y84.351 E97.33042
G1 X98.281 Y84.351 E97.36331
G1 X104.794 Y90.865 E97.87401
G1 X105.387 Y90.865 E97.90690
G1 X98.874 Y84.351 E98.41760
G1 X99.467 Y84.351 E98.45050
G1 X105.980 Y90.865 E98.96120
G1 X106.574 Y90.865 E98.99409
G1 X100.060 Y84.351 E99.50479
G1 X100.654 Y84.351 E99.53768
G1 X107.167 Y90.865 E100.04838
G1 X107.760 Y90.865 E100.08127
G1 X101.247 Y84.351 E100.59197
G1 X101.840 Y84.351 E100.62486
G1 X108.353 Y90.865 E101.13556
G1 X108.947 Y90.865 E101.16845
G1 X102.433 Y84.351 E101.67915
G1 X103.026 Y84.351 E101.71204
G1 X109.540 Y90.865 E102.22274
G1 X110.133 Y90.865 E102.25563
G1 X103.620 Y84.351 E102.76633
G1 X104.213 Y84.351 E102.79922
G1 X110.726 Y90.865 E103.30992
G1 X111.320 Y90.865 E103.34281
G1 X104.806 Y84.351 E103.85351
G1 X105.399 Y84.351 E103.88640
G1 X111.913 Y90.865 E104.39710
G1 X112.506 Y90.865 E104.42999
G1 X105.993 Y84.351 E104.94069
G1 X106.586 Y84.351 E104.97358
G1 X113.099 Y90.865 E105.48428
G1 X113.693 Y90.865 E105.51717
G1 X107.179 Y84.351 E106.02787
G1 X107.772 Y84.351 E106.06076
G1 X114.286 Y90.865 E106.57146
G1 X114.879 Y90.865 E106.60435
G1 X108.366 Y84.351 E107.11505
G1 X108.959 Y84.351 E107.14794
G1 X115.472 Y90.865 E107.65865
G1 X116.065 Y90.865 E107.69154
G1 X109.552 Y84.351 E108.20224
G1 X110.145 Y84.351 E108.23513
G1 X116.659 Y90.865 E108.74583
G1 X117.252 Y90.865 E108.77872
G1 X110.738 Y84.351 E109.28942
G1 X111.332 Y84.351 E109.32231
G1 X117.845 Y90.865 E109.83301
G1 X118.438 Y90.865 E109.86590
G1 X111.925 Y84.351 E110.37660
G1 X112.518 Y84.351 E110.40949
G1 X119.032 Y90.865 E110.92019
G1 X119.625 Y90.865 E110.95308
G1 X113.111 Y84.351 E111.46378
G1 X113.705 Y84.351 E111.49667
G1 X120.218 Y90.865 E112.00737
G1 X120.811 Y90.865 E112.04026
G1 X114.298 Y84.351 E112.55096
G1 X114.891 Y84.351 E112.58385
