; generated by Slic3r 1.2.9 on 2016-12-17 at 01:15:10

; external perimeters extrusion width = 0.40mm
; perimeters extrusion width = 0.48mm
; infill extrusion width = 0.48mm
; solid infill extrusion width = 0.48mm
; top infill extrusion width = 0.48mm

M107
G28 ; home all axes
G29
G1 Z5 F5000 ; lift Z
G21 ; set units to millimeters
G90 ; use absolute coordinates
M82 ; use absolute distances for extrusion
G92 E0
G1 E-1.20000 F1800.00000
G92 E0
G1 Z0.100 F8400.000
G1 Z0.300 F8400.000
G1 Z0.400 F8400.000
G1 X19.216 Y43.905 F8400.000
G1 Z0.300 F8400.000
G1 E1.30000 F1800.00000
G1 X21.421 Y42.953 E1.43293 F900.000
G1 X23.154 Y42.743 E1.52958
G1 X176.862 Y42.743 E10.03936
G1 X179.230 Y43.141 E10.17229
G1 X181.339 Y44.289 E10.30522 F900.000
G1 X182.957 Y46.062 E10.43816
G1 X183.908 Y48.267 E10.57109
G1 X184.118 Y50.000 E10.66774
G1 X184.118 Y148.000 E16.09334
G1 X184.045 Y149.101 E16.15443
G1 X183.767 Y150.498 E16.23327
G1 X183.653 Y150.873 E16.25497
G1 X183.111 Y152.184 E16.33352
G1 X182.926 Y152.530 E16.35524
G1 X182.133 Y153.716 E16.43423
G1 X181.884 Y154.019 E16.45594
G1 X180.883 Y155.020 E16.53433
G1 X180.580 Y155.270 E16.55607
G1 X179.396 Y156.061 E16.63491
G1 X179.050 Y156.246 E16.65662
G1 X177.737 Y156.791 E16.73534
G1 X177.362 Y156.905 E16.75705
G1 X175.955 Y157.184 E16.83644
G1 X174.862 Y157.257 E16.89711
G1 X25.165 Y157.257 E25.18483
G1 X24.073 Y157.185 E25.24539
G1 X22.674 Y156.908 E25.32438
G1 X22.296 Y156.794 E25.34620
G1 X20.987 Y156.254 E25.42464
G1 X20.639 Y156.069 E25.44644
G1 X19.464 Y155.288 E25.52457
G1 X19.151 Y155.033 E25.54690
G1 X18.152 Y154.040 E25.62487
G1 X17.896 Y153.730 E25.64713
G1 X17.101 Y152.546 E25.72609
G1 X16.914 Y152.198 E25.74797
G1 X16.368 Y150.888 E25.82658
G1 X16.252 Y150.509 E25.84849
G1 X15.972 Y149.112 E25.92735
G1 X15.933 Y148.715 E25.94949
G1 X15.897 Y148.000 E25.98910
G1 X15.897 Y50.000 E31.41471
G1 X16.295 Y47.632 E31.54764
G1 X17.443 Y45.523 E31.68057
G1 X19.172 Y43.945 E31.81018
G1 X19.509 Y44.242 F8400.000
G1 X19.619 Y44.147 E31.81820 F900.000
G1 X21.789 Y43.300 E31.94721
G1 X23.154 Y43.162 E32.02315
G1 X176.862 Y43.162 E40.53293
G1 X179.158 Y43.559 E40.66194
G1 X181.188 Y44.704 E40.79095 F900.000
G1 X182.715 Y46.465 E40.91996
G1 X183.562 Y48.635 E41.04897
G1 X183.700 Y50.000 E41.12491
G1 X183.700 Y148.000 E46.55052
G1 X183.628 Y149.060 E46.60933
G1 X183.366 Y150.376 E46.68362
G1 X183.253 Y150.751 E46.70532
G1 X182.741 Y151.986 E46.77934
G1 X182.556 Y152.332 E46.80105
G1 X181.809 Y153.450 E46.87549
G1 X181.561 Y153.753 E46.89719
G1 X180.617 Y154.697 E46.97106
G1 X180.314 Y154.946 E46.99280
G1 X179.199 Y155.692 E47.06709
G1 X178.853 Y155.877 E47.08880
G1 X177.615 Y156.390 E47.16297
G1 X177.240 Y156.504 E47.18468
G1 X175.915 Y156.768 E47.25949
G1 X174.862 Y156.838 E47.31791
G1 X25.165 Y156.838 E55.60563
G1 X24.114 Y156.768 E55.66396
G1 X22.795 Y156.507 E55.73839
G1 X22.418 Y156.393 E55.76021
G1 X21.183 Y155.884 E55.83411
G1 X20.836 Y155.699 E55.85592
G1 X19.728 Y154.964 E55.92953
G1 X19.416 Y154.709 E55.95184
G1 X18.475 Y153.773 E56.02531
G1 X18.219 Y153.464 E56.04754
G1 X17.470 Y152.348 E56.12194
G1 X17.283 Y152.000 E56.14381
G1 X16.768 Y150.765 E56.21788
G1 X16.653 Y150.387 E56.23978
G1 X16.389 Y149.071 E56.31409
G1 X16.316 Y148.000 E56.37351
G1 X16.316 Y50.000 E61.79912
G1 X16.713 Y47.704 E61.92813
G1 X17.858 Y45.674 E62.05714
G1 X19.464 Y44.281 E62.17481
G1 X19.791 Y44.586 F8400.000
G1 X20.019 Y44.399 E62.19111 F900.000
G1 X23.154 Y43.581 E62.37050
G1 X176.862 Y43.581 E70.88028
G1 X179.084 Y43.978 E71.00524
G1 X181.031 Y45.120 E71.13021 F900.000
G1 X182.463 Y46.865 E71.25518
G1 X183.281 Y50.000 E71.43457
G1 X183.281 Y148.000 E76.86018
G1 X183.211 Y149.019 E76.91672
G1 X182.966 Y150.254 E76.98645
G1 X182.852 Y150.629 E77.00815
G1 X182.372 Y151.789 E77.07764
G1 X182.187 Y152.135 E77.09935
G1 X181.486 Y153.184 E77.16923
G1 X181.237 Y153.487 E77.19093
G1 X180.351 Y154.373 E77.26028
G1 X180.048 Y154.622 E77.28201
G1 X179.001 Y155.323 E77.35175
G1 X178.655 Y155.508 E77.37346
G1 X177.493 Y155.990 E77.44309
G1 X177.118 Y156.104 E77.46480
G1 X175.874 Y156.351 E77.53503
G1 X174.862 Y156.419 E77.59120
G1 X25.165 Y156.419 E85.87891
G1 X24.154 Y156.351 E85.93501
G1 X22.916 Y156.106 E86.00488
G1 X22.539 Y155.992 E86.02670
G1 X21.380 Y155.515 E86.09608
G1 X21.033 Y155.330 E86.11788
G1 X19.993 Y154.639 E86.18699
G1 X19.681 Y154.384 E86.20926
G1 X18.798 Y153.506 E86.27823
G1 X18.542 Y153.197 E86.30043
G1 X17.839 Y152.150 E86.37027
G1 X17.652 Y151.802 E86.39214
G1 X17.169 Y150.643 E86.46167
G1 X17.053 Y150.264 E86.48356
G1 X16.806 Y149.029 E86.55332
G1 X16.735 Y148.000 E86.61042
G1 X16.735 Y50.000 E92.03603
G1 X17.132 Y47.778 E92.16100
G1 X18.274 Y45.831 E92.28596
G1 X19.745 Y44.624 E92.39131
G1 E91.19131 F1800.00000
G92 E0
G1 Z0.400 F8400.000
G1 X29.132 Y140.304 F8400.000
G1 Z0.300 F8400.000
G1 E1.30000 F1800.00000
G1 X29.653 Y140.461 E1.33013 F360.000
G1 X30.318 Y140.815 E1.37185
G1 X30.901 Y141.291 E1.41349
G1 X31.380 Y141.870 E1.45513
G1 X31.736 Y142.533 E1.49678
G1 X31.955 Y143.252 E1.53841
G1 X32.029 Y144.000 E1.58000
G1 X31.955 Y144.748 E1.62160
G1 X31.736 Y145.467 E1.66323
G1 X31.380 Y146.130 E1.70487
G1 X30.901 Y146.709 E1.74651
G1 X30.318 Y147.185 E1.78816
G1 X29.653 Y147.539 E1.82987
G1 X28.931 Y147.757 E1.87162
G1 X28.181 Y147.830 E1.91333
G1 X27.432 Y147.757 E1.95505
G1 X26.710 Y147.539 E1.99679
G1 X26.045 Y147.185 E2.03850
G1 X25.462 Y146.709 E2.08015
G1 X24.983 Y146.130 E2.12179
G1 X24.627 Y145.467 E2.16343
G1 X24.408 Y144.748 E2.20506
G1 X24.333 Y144.000 E2.24666
G1 X24.408 Y143.252 E2.28826
G1 X24.627 Y142.533 E2.32989
G1 X24.983 Y141.870 E2.37154
G1 X25.462 Y141.291 E2.41317
G1 X26.045 Y140.815 E2.45482
G1 X26.710 Y140.461 E2.49653
G1 X27.432 Y140.243 E2.53828
G1 X28.181 Y140.170 E2.57999 F360.000
G1 X28.931 Y140.243 E2.62171
G1 X29.075 Y140.286 E2.63000
G1 X29.023 Y140.665 F8400.000
G1 X29.509 Y140.811 E2.65249 F360.000
G1 X30.108 Y141.131 E2.68263
G1 X30.634 Y141.559 E2.71272
G1 X31.065 Y142.082 E2.74278
G1 X31.386 Y142.679 E2.77283
G1 X31.584 Y143.327 E2.80288
G1 X31.650 Y144.000 E2.83289
G1 X31.584 Y144.673 E2.86291
G1 X31.386 Y145.321 E2.89295
G1 X31.065 Y145.918 E2.92301
G1 X30.634 Y146.441 E2.95307
G1 X30.108 Y146.869 E2.98316
G1 X29.509 Y147.189 E3.01329
G1 X28.858 Y147.385 E3.04345
G1 X28.181 Y147.451 E3.07360
G1 X27.505 Y147.385 E3.10375
G1 X26.854 Y147.189 E3.13390
G1 X26.255 Y146.869 E3.16403
G1 X25.729 Y146.441 E3.19412
G1 X25.298 Y145.918 E3.22418
G1 X24.977 Y145.321 E3.25424
G1 X24.779 Y144.673 E3.28428
G1 X24.713 Y144.000 E3.31430
G1 X24.779 Y143.327 E3.34432
G1 X24.977 Y142.679 E3.37436
G1 X25.298 Y142.082 E3.40442
G1 X25.729 Y141.559 E3.43448
G1 X26.255 Y141.131 E3.46457
G1 X26.854 Y140.811 E3.49470
G1 X27.505 Y140.615 E3.52485
G1 X28.181 Y140.549 E3.55500 F360.000
G1 X28.858 Y140.615 E3.58515
G1 X28.966 Y140.647 E3.59015
G1 X29.315 Y140.391 F8400.000
G1 E2.39015 F1800.00000
G92 E0
G1 Z0.400 F8400.000
G1 X165.968 Y144.000 F8400.000
G1 Z0.300 F8400.000
G1 E1.30000 F1800.00000
G1 X166.050 Y143.170 E1.34619 F360.000
G1 X166.293 Y142.371 E1.39240
G1 X166.689 Y141.636 E1.43864
G1 X167.220 Y140.992 E1.48486
G1 X167.867 Y140.465 E1.53105
G1 X168.604 Y140.072 E1.57731
G1 X169.405 Y139.830 E1.62362
G1 X170.226 Y139.750 E1.66930 F360.000
G1 X171.067 Y139.830 E1.71604
G1 X171.869 Y140.072 E1.76243
G1 X172.607 Y140.465 E1.80870
G1 X173.253 Y140.992 E1.85489
G1 X173.785 Y141.636 E1.90110
G1 X174.180 Y142.371 E1.94734
G1 X174.423 Y143.170 E1.99355
G1 X174.506 Y144.000 E2.03974
G1 X174.423 Y144.830 E2.08593
G1 X174.180 Y145.629 E2.13214
G1 X173.785 Y146.364 E2.17838
G1 X173.253 Y147.008 E2.22459
G1 X172.607 Y147.535 E2.27079
G1 X171.869 Y147.928 E2.31705
G1 X171.068 Y148.170 E2.36337
G1 X170.237 Y148.251 E2.40962
G1 X169.405 Y148.170 E2.45587
G1 X168.604 Y147.928 E2.50218
G1 X167.867 Y147.535 E2.54844
G1 X167.220 Y147.008 E2.59463
G1 X166.689 Y146.364 E2.64085
G1 X166.293 Y145.629 E2.68709
G1 X166.050 Y144.830 E2.73330
G1 X165.974 Y144.060 E2.77617
G1 X166.389 Y144.000 F8400.000
G1 X166.463 Y143.252 E2.81777 F360.000
G1 X166.682 Y142.533 E2.85940
G1 X167.038 Y141.870 E2.90104
G1 X167.517 Y141.291 E2.94268
G1 X168.100 Y140.815 E2.98433
G1 X168.765 Y140.461 E3.02604
G1 X169.487 Y140.243 E3.06779
G1 X170.227 Y140.171 E3.10895 F360.000
G1 X170.986 Y140.243 E3.15116
G1 X171.708 Y140.461 E3.19295
G1 X172.373 Y140.815 E3.23467
G1 X172.956 Y141.291 E3.27631
G1 X173.435 Y141.870 E3.31795
G1 X173.791 Y142.533 E3.35960
G1 X174.011 Y143.252 E3.40122
G1 X174.085 Y144.000 E3.44282
G1 X174.011 Y144.748 E3.48442
G1 X173.791 Y145.467 E3.52605
G1 X173.435 Y146.130 E3.56769
G1 X172.956 Y146.709 E3.60933
G1 X172.373 Y147.185 E3.65098
G1 X171.708 Y147.539 E3.69269
G1 X170.987 Y147.757 E3.73444
G1 X170.237 Y147.830 E3.77615
G1 X169.487 Y147.757 E3.81787
G1 X168.765 Y147.539 E3.85961
G1 X168.100 Y147.185 E3.90132
G1 X167.517 Y146.709 E3.94297
G1 X167.038 Y146.130 E3.98461
G1 X166.682 Y145.467 E4.02626
G1 X166.463 Y144.748 E4.06788
G1 X166.395 Y144.060 E4.10616
G1 X166.768 Y144.000 F8400.000
G1 X166.834 Y143.327 E4.13618 F360.000
G1 X167.032 Y142.679 E4.16622
G1 X167.353 Y142.082 E4.19628
G1 X167.784 Y141.559 E4.22634
G1 X168.310 Y141.131 E4.25642
G1 X168.909 Y140.811 E4.28656
G1 X169.560 Y140.615 E4.31671
G1 X170.227 Y140.550 E4.34645 F360.000
G1 X170.913 Y140.615 E4.37699
G1 X171.564 Y140.811 E4.40716
G1 X172.164 Y141.131 E4.43730
G1 X172.689 Y141.559 E4.46738
G1 X173.121 Y142.082 E4.49744
G1 X173.441 Y142.679 E4.52750
G1 X173.639 Y143.327 E4.55754
G1 X173.706 Y144.000 E4.58756
G1 X173.639 Y144.673 E4.61758
G1 X173.441 Y145.321 E4.64762
G1 X173.121 Y145.918 E4.67768
G1 X172.689 Y146.441 E4.70773
G1 X172.164 Y146.869 E4.73782
G1 X171.564 Y147.189 E4.76796
G1 X170.913 Y147.385 E4.79812
G1 X170.237 Y147.451 E4.82826
G1 X169.560 Y147.385 E4.85841
G1 X168.909 Y147.189 E4.88857
G1 X168.310 Y146.869 E4.91870
G1 X167.784 Y146.441 E4.94879
G1 X167.353 Y145.918 E4.97885
G1 X167.032 Y145.321 E5.00891
G1 X166.834 Y144.673 E5.03895
G1 X166.774 Y144.060 E5.06631
G1 X166.428 Y143.789 F8400.000
G1 E3.86631 F1800.00000
G92 E0
G1 Z0.400 F8400.000
G1 X166.228 Y139.867 F8400.000
G1 Z0.300 F8400.000
G1 E1.30000 F1800.00000
G1 X164.862 Y140.001 E1.37599 F900.000
G1 X163.496 Y139.867 E1.45197
G1 X162.183 Y139.468 E1.52796
G1 X160.972 Y138.821 E1.60392
G1 X159.911 Y137.951 E1.67991
G1 X159.041 Y136.889 E1.75593
G1 X158.394 Y135.679 E1.83188
G1 X157.995 Y134.366 E1.90784
G1 X157.861 Y133.000 E1.98385
G1 X157.995 Y131.634 E2.05986
G1 X158.394 Y130.321 E2.13581
G1 X159.041 Y129.111 E2.21177
G1 X159.911 Y128.049 E2.28778
G1 X160.972 Y127.179 E2.36378
G1 X162.183 Y126.532 E2.43973
G1 X163.496 Y126.133 E2.51572
G1 X164.589 Y126.026 E2.57652
G1 X164.862 Y125.999 E2.59171 F900.000
G1 X166.228 Y126.133 E2.66770
G1 X167.541 Y126.532 E2.74368
G1 X168.751 Y127.179 E2.81963
G1 X169.812 Y128.049 E2.89563
G1 X170.683 Y129.111 E2.97165
G1 X171.330 Y130.321 E3.04760
G1 X171.728 Y131.634 E3.12356
G1 X171.863 Y133.000 E3.19957
G1 X171.728 Y134.366 E3.27558
G1 X171.330 Y135.679 E3.35153
G1 X170.683 Y136.889 E3.42748
G1 X169.812 Y137.951 E3.50350
G1 X168.751 Y138.821 E3.57950
G1 X167.541 Y139.468 E3.65545
G1 X166.285 Y139.849 E3.72811
G1 X166.146 Y139.454 F8400.000
G1 X164.862 Y139.580 E3.79953 F900.000
G1 X163.578 Y139.454 E3.87095
G1 X162.344 Y139.079 E3.94237
G1 X161.206 Y138.471 E4.01376
G1 X160.209 Y137.653 E4.08518
G1 X159.391 Y136.655 E4.15663
G1 X158.783 Y135.518 E4.22802
G1 X158.408 Y134.284 E4.29940
G1 X158.282 Y133.000 E4.37085
G1 X158.408 Y131.716 E4.44229
G1 X158.783 Y130.482 E4.51367
G1 X159.391 Y129.345 E4.58506
G1 X160.209 Y128.347 E4.65651
G1 X161.206 Y127.529 E4.72793
G1 X162.344 Y126.921 E4.79932
G1 X163.578 Y126.546 E4.87075
G1 X164.630 Y126.443 E4.92925
G1 X164.862 Y126.420 E4.94216 F900.000
G1 X166.146 Y126.546 E5.01358
G1 X167.380 Y126.921 E5.08500
G1 X168.517 Y127.529 E5.15639
G1 X169.515 Y128.347 E5.22781
G1 X170.333 Y129.345 E5.29926
G1 X170.941 Y130.482 E5.37065
G1 X171.315 Y131.716 E5.44203
G1 X171.442 Y133.000 E5.51347
G1 X171.315 Y134.284 E5.58491
G1 X170.941 Y135.518 E5.65630
G1 X170.333 Y136.655 E5.72769
G1 X169.515 Y137.653 E5.79914
G1 X168.517 Y138.471 E5.87056
G1 X167.380 Y139.079 E5.94195
G1 X166.203 Y139.436 E6.01005
G1 X166.072 Y139.082 F8400.000
G1 X164.862 Y139.201 E6.06397 F360.000
G1 X163.652 Y139.082 E6.11789
G1 X162.489 Y138.729 E6.17182
G1 X161.417 Y138.156 E6.22573
G1 X160.477 Y137.385 E6.27965
G1 X159.706 Y136.445 E6.33360
G1 X159.133 Y135.373 E6.38751
G1 X158.780 Y134.210 E6.44141
G1 X158.661 Y133.000 E6.49536
G1 X158.780 Y131.790 E6.54930
G1 X159.133 Y130.627 E6.60320
G1 X159.706 Y129.555 E6.65711
G1 X160.477 Y128.615 E6.71106
G1 X161.417 Y127.844 E6.76498
G1 X162.489 Y127.271 E6.81889
G1 X163.652 Y126.918 E6.87282
G1 X164.667 Y126.818 E6.91804
G1 X164.862 Y126.799 E6.92674 F360.000
G1 X166.072 Y126.918 E6.98066
G1 X167.235 Y127.271 E7.03459
G1 X168.307 Y127.844 E7.08850
G1 X169.247 Y128.615 E7.14243
G1 X170.018 Y129.555 E7.19637
G1 X170.591 Y130.627 E7.25028
G1 X170.944 Y131.790 E7.30418
G1 X171.063 Y133.000 E7.35812
G1 X170.944 Y134.210 E7.41207
G1 X170.591 Y135.373 E7.46597
G1 X170.018 Y136.445 E7.51987
G1 X169.247 Y137.385 E7.57382
G1 X168.307 Y138.156 E7.62775
G1 X167.235 Y138.729 E7.68166
G1 X166.129 Y139.065 E7.73292
G1 X165.931 Y139.456 F8400.000
G1 E6.53292 F1800.00000
G92 E0
G1 Z0.400 F8400.000
G1 X42.139 Y133.000 F8400.000
G1 Z0.300 F8400.000
G1 E1.30000 F1800.00000
G1 X42.005 Y134.366 E1.37601 F900.000
G1 X41.606 Y135.679 E1.45197
G1 X40.959 Y136.889 E1.52792
G1 X40.089 Y137.951 E1.60393
G1 X39.028 Y138.821 E1.67993
G1 X37.817 Y139.468 E1.75588
G1 X36.504 Y139.867 E1.83187
G1 X35.138 Y140.001 E1.90786
G1 X33.772 Y139.867 E1.98385
G1 X32.459 Y139.468 E2.05983
G1 X31.249 Y138.821 E2.13579
G1 X30.188 Y137.951 E2.21179
G1 X29.317 Y136.889 E2.28780
G1 X28.670 Y135.679 E2.36375
G1 X28.272 Y134.366 E2.43971
G1 X28.137 Y133.000 E2.51572
G1 X28.272 Y131.634 E2.59173
G1 X28.670 Y130.321 E2.66769
G1 X29.317 Y129.111 E2.74364
G1 X30.188 Y128.049 E2.81965
G1 X31.249 Y127.179 E2.89565
G1 X32.459 Y126.532 E2.97160
G1 X33.772 Y126.133 E3.04759
G1 X34.865 Y126.026 E3.10839
G1 X35.138 Y125.999 E3.12358 F900.000
G1 X36.504 Y126.133 E3.19956
G1 X37.817 Y126.532 E3.27555
G1 X39.028 Y127.179 E3.35151
G1 X40.089 Y128.049 E3.42750
G1 X40.959 Y129.111 E3.50352
G1 X41.606 Y130.321 E3.57947
G1 X42.005 Y131.634 E3.65543
G1 X42.133 Y132.940 E3.72811
G1 X41.718 Y133.000 F8400.000
G1 X41.592 Y134.284 E3.79955 F900.000
G1 X41.217 Y135.518 E3.87094
G1 X40.609 Y136.655 E3.94233
G1 X39.791 Y137.653 E4.01378
G1 X38.794 Y138.471 E4.08520
G1 X37.656 Y139.079 E4.15659
G1 X36.422 Y139.454 E4.22801
G1 X35.138 Y139.580 E4.29943
G1 X33.854 Y139.454 E4.37085
G1 X32.620 Y139.079 E4.44226
G1 X31.483 Y138.471 E4.51366
G1 X30.485 Y137.653 E4.58508
G1 X29.667 Y136.655 E4.65652
G1 X29.059 Y135.518 E4.72791
G1 X28.685 Y134.284 E4.79930
G1 X28.558 Y133.000 E4.87074
G1 X28.685 Y131.716 E4.94218
G1 X29.059 Y130.482 E5.01357
G1 X29.667 Y129.345 E5.08496
G1 X30.485 Y128.347 E5.15640
G1 X31.483 Y127.529 E5.22783
G1 X32.620 Y126.921 E5.29922
G1 X33.854 Y126.546 E5.37064
G1 X34.906 Y126.443 E5.42915
G1 X35.138 Y126.420 E5.44206 F900.000
G1 X36.422 Y126.546 E5.51347
G1 X37.656 Y126.921 E5.58489
G1 X38.794 Y127.529 E5.65629
G1 X39.791 Y128.347 E5.72770
G1 X40.609 Y129.345 E5.79915
G1 X41.217 Y130.482 E5.87054
G1 X41.592 Y131.716 E5.94193
G1 X41.712 Y132.940 E6.01005
G1 X41.339 Y133.000 F8400.000
G1 X41.220 Y134.210 E6.06399 F360.000
G1 X40.867 Y135.373 E6.11789
G1 X40.294 Y136.445 E6.17180
G1 X39.523 Y137.385 E6.22575
G1 X38.583 Y138.156 E6.27967
G1 X37.511 Y138.729 E6.33358
G1 X36.348 Y139.082 E6.38751
G1 X35.138 Y139.201 E6.44143
G1 X33.928 Y139.082 E6.49536
G1 X32.765 Y138.729 E6.54928
G1 X31.693 Y138.156 E6.60319
G1 X30.753 Y137.385 E6.65712
G1 X29.982 Y136.445 E6.71107
G1 X29.409 Y135.373 E6.76497
G1 X29.056 Y134.210 E6.81887
G1 X28.937 Y133.000 E6.87282
G1 X29.056 Y131.790 E6.92676
G1 X29.409 Y130.627 E6.98066
G1 X29.982 Y129.555 E7.03457
G1 X30.753 Y128.615 E7.08852
G1 X31.693 Y127.844 E7.14244
